!!!!SEGMENT: pl-wn--mus-iii-72-686-cim_katski-apolinary--stefan-batory-op-12.krn
!!!cenid: 18xx:3628
!!!COM: Kątski, Apolinary
!!!COM-rismID: pe30020040
!!!CDT: 1825-1879
!!!CNT: Polish
!!!OTL: Stefan Batory op. 12
!!!PDT:
!!!AGN:
!!!SMS-siglum: PL-Wn
!!!SMS-shelfmark: Mus.III.72.686 Cim.
!!!SMS-shelfwork: W
!!!SMS-variant:
!!!SMS-altvar:
!!!NIFC-rismSourceID:
!!!NIFC-islandoraID:
!!!URL-pdf-islandora:
!!!URL-scan: https://polona.pl/item/stefan-batory-poemat-mazur-skomponowany-na-fortepian-i-przypisany-warszawianom-dz,NzA4OTI0NjM/15 @EN{Scan on Polona} @PL{Skany w portalu Polona}
!!!ONB-nifc:
!!!OMD: Allegro.
!!!AIN: 2 piano
!!!key: D
**kern	**kern	**dynam
*group1	*group1	*
*part2	*part1	*part1
*staff2	*staff1	*
*I"Piano.	*I"Piano.	*
*I'[pf]	*I'[pf]	*
*Ipiano	*Ipiano	*
*ICklav	*ICklav	*
*clefF4	*clefG2	*
*k[f#c#]	*k[f#c#]	*
*D:	*D:	*
*M3/4	*M3/4	*
*kcancel	*kcancel	*
=1	=1	=1
*tremolo	*	*
(<16AAA/LL	2.r	p
16AA/	.	.
16AAA/	.	.
16AA/	.	.
16AAA/	.	.
16AA/	.	.
16AAA/	.	.
16AA/	.	.
16AAA/	.	.
16AA/	.	.
16AAA/	.	.
16AA/JJ)	.	.
=2	=2	=2
(<16AAA/LL	2.r	.
16AA/	.	.
16AAA/	.	.
16AA/	.	.
16AAA/	.	.
16AA/	.	.
16AAA/	.	.
16AA/	.	.
16AAA/	.	.
16AA/	.	.
16AAA/	.	.
16AA/JJ)	.	.
=3	=3	=3
(<16AAA/LL	2.r	.
16AA/	.	.
16AAA/	.	.
16AA/	.	.
16AAA/	.	.
16AA/	.	.
16AAA/	.	.
16AA/	.	.
16AAA/	.	.
16AA/	.	.
16AAA/	.	.
16AA/JJ)	.	.
=4	=4	=4
(<16AAA/LL	2.r	.
16AA/	.	.
16AAA/	.	.
16AA/	.	.
16AAA/	.	.
16AA/	.	.
16AAA/	.	.
16AA/	.	.
16AAA/	.	.
16AA/	.	.
16AAA/	.	.
16AA/JJ)	.	.
=5	=5	=5
(<16AAA/LL	8.A/L 8.c#/ 8.a/	p <
16AA/	.	.
16AAA/	.	.
16AA/	16A/Jk 16c#/ 16a/	.
16AAA/	4A/ 4c#/ 4a/	.
16AA/	.	.
16AAA/	.	.
16AA/	.	.
16AAA/	4A^>/ 4c#/ 4a/	.
16AA/	.	.
16AAA/	.	.
16AA/JJ)	.	.
=6	=6	=6
(<16AAA/LL	8.B/L 8.d/ 8.a/	.
16AA/	.	.
16AAA/	.	.
16AA/	16B/Jk 16d/ 16a/	.
16AAA/	4B/ 4d/ 4a/	.
16AA/	.	.
16AAA/	.	.
16AA/	.	.
16AAA/	4B^>/ 4d/ 4a/	.
16AA/	.	.
16AAA/	.	.
16AA/JJ)	.	.
!!LO:LB:g=original
=7	=7	=7
(<16AAA/LL	8.cn/L 8.d#X/ 8.a/	.
16AA/	.	.
16AAA/	.	.
16AA/	16c/Jk 16d#/ 16a/	.
16AAA/	4c/ 4d#/ 4a/	.
16AA/	.	.
16AAA/	.	.
16AA/	.	.
16AAA/	4c^>/ 4d#/ 4a/	[[
16AA/	.	.
16AAA/	.	.
16AA/JJ)	.	.
=8	=8	=8
(<16AAA/LL	8.c#X/L 8.e/ 8.a/	f
16AA/	.	.
16AAA/	.	.
16AA/	16c#/Jk 16e/ 16a/	.
16AAA/	4c#/ 4e/ 4a/	.
16AA/	.	.
16AAA/	.	.
16AA/	.	.
16AAA/	4c#/ 4e/ 4a/	.
16AA/	.	.
16AAA/	.	.
16AA/JJ)	.	.
*Xtremolo	*	*
=9	=9	=9
!	!LO:TX:a:B:t=Risoluto.	!
4DD/ 4AA/ 4D/	4d/ 4f#/ 4a/	f
2DD^</ 2AA/ 2D/	2f#^</ 2a/ 2dd/	.
=10	=10	=10
4DD/ 4AA/ 4D/	4d/ 4f#/ 4a/	.
2DD^</ 2AA/ 2D/	2a^<\ 2dd\ 2ff#\	.
=11	=11	=11
!	!LO:TUP:a:problem=klamra łukowa	!
4D\ 4F#\ 4A\	12d\L 12a	.
.	12dd\	.
.	12ff#\J	.
4D\ 4F#\ 4A\	4a\ 4aa\	.
4D\ 4F#\ 4A\	4bb\	.
=12	=12	=12
4D\ 4F#\ 4A\	8.a\L 8.aa\	.
.	16ff#\Jk	.
2DD^</ 2AA/ 2D/	2d^</ 2f#/ 2dd/	.
!!LO:LB:g=original
=13	=13	=13
4DD/ 4D/	4d/ 4f#/ 4a/	.
2D^>\ 2A\	2d^</ 2f#/ 2a/ 2dd/	.
=14	=14	=14
4DD/ 4D/	4d/ 4f#/ 4a/	.
2D^>\ 2A\	2f#^<\ 2a\ 2dd\ 2ff#\	.
=15	=15	=15
!	!LO:TUP:a:problem=klamra łukowa	!
4DD/ 4D/	12f#\L 12a\	.
.	12dd\	.
.	12ff#\J	.
4D\ 4F#\ 4A\ 4d\	4a\ 4aa\	.
4D\ 4F#\ 4A\ 4d\	4a^^>\ 4bb\	.
=16	=16	=16
4D\ 4F#\ 4A\ 4d\	8.a\L 8.aa\	.
.	16ff#\Jk	.
2DD^</ 2AA/ 2D/	2dd^<\ 2ff#\ 2ddd\	.
=17	=17	=17
.	(<16qqccc#/LL	p
!	!LO:TX:b:t=con eleganza	!
.	16qqddd/JJ	.
4AAA/ 4AA/	8ccc#\L)	.
.	16r	.
.	16ee\Jk	.
2G^>\ 2A\ 2c#\	(>2bb^>\	.
=18	=18	=18
4DD/ 4D/	8aa\L)	.
.	16r	.
.	16ff#\Jk	.
2F#^>\ 2A\ 2d\	2dd^>\	.
!!LO:LB:g=original
=19	=19	=19
4AA/	8ee\L	.
.	16r	.
.	16b\Jk	.
4G\ 4A\ 4e\	(>2cc#\	.
4G\ 4A\ 4e\	.	.
=20	=20	=20
4DD/ 4D/	8dd\L)	.
.	16r	.
.	16ff#\Jk	.
4F#\ 4A\ 4d\	2aa^^>\	.
4F#\ 4A\ 4d\	.	.
=21	=21	=21
.	(<16qqccc#/LL	.
.	16qqddd/JJ	.
4AAA/ 4AA/	8ccc#\L)	.
.	16r	.
.	16ee\Jk	.
2G^>\ 2A\ 2c#\	2bb^^>\	.
=22	=22	=22
4DD/ 4D/	8aa\L	.
.	16r	.
.	16ff#\Jk	.
2F#^>\ 2A\ 2d\	2dd^>\	.
=23	=23	=23
*	*^	*
4AAA/ 4AA/	8ee\L	4ryy	.
.	16r	.	.
.	16b\Jk	.	.
4A\ 4e\	(2>cc#/	4r	.
4A\ 4e\	.	4g\ 4a\	.
=24	=24	=24	=24
*	*	*	*^
4D\ 4F#\ 4A\ 4d\	4dd/)	4f#\ 4a\	.	.
!	!	!	!	!LO:DY:b=2
4DD/ 4D/	4dd\ 4ff#\ 4aa\ 4ddd\	2ryy	sf	sf
4r	4r	.	.	.
*	*	*	*v	*v
*	*v	*v	*
!!LO:PB:g=original
=25	=25	=25
!	!LO:TX:a:B:t=Tutti.	!
4DD/ 4D/	4f#/ 4a/	ff
2D^>\ 2F#\ 2A\ 2d\	2f#/ 2dd/	.
=26	=26	=26
4DD/ 4D/	4f#/ 4a/	.
2D^>\ 2F#\ 2A\ 2d\	2f#\ 2ff#\	.
=27	=27	=27
!	!LO:TUP:a:problem=klamra łukowa	!
4DD/ 4D/	12a\L	.
.	12dd\	.
.	12ff#\J	.
4D\ 4F#\ 4A\ 4d\	4aa\	.
4D\ 4F#\ 4A\ 4d\	4b^>\ 4bb\	.
=28	=28	=28
4DD/ 4D/	8a\L 8aa\	.
.	16r	.
.	(>16ff#\Jk	.
2D\ 2F#\ 2A\ 2d\	2dd\)	.
=29	=29	=29
4DD/ 4D/	4f#/ 4a/	.
2D^>\ 2F#\ 2A\ 2d\	2f#/ 2dd/	.
=30	=30	=30
4DD/ 4D/	4f#/ 4a/	.
2D^>\ 2F#\ 2A\ 2d\	2f#\ 2ff#\	.
=31	=31	=31
!	!LO:TUP:a:problem=klamra łukowa	!
4DD/ 4D/	12a\L	.
.	12dd\	.
.	12ff#\J	.
4D\ 4F#\ 4A\ 4d\	4aa\	.
4D\ 4F#\ 4A\ 4d\	4b^>\ 4bb\	.
=32	=32	=32
4DD/ 4D/	8a\L 8aa\	.
.	16r	.
.	(>16ff#\Jk	.
2D^>\ 2F#\ 2A\ 2d\	2dd\) 2ddd\	.
!!LO:LB:g=original
=33	=33	=33
.	(<16qqccc#/LL	p
!	!LO:TX:b:t=con eleganza	!
.	16qqddd/JJ	.
4AAA/ 4AA/	8ccc#\L)	.
.	16r	.
.	16ee\Jk	.
2G\ 2A\ 2c#\	(>2bb^<\	.
=34	=34	=34
4DD/ 4D/	8aa\L)	.
.	16r	.
.	16ff#\Jk	.
2F#\ 2A\ 2d\	2dd^<\	.
=35	=35	=35
4AA/	8ee\L	.
.	16r	.
.	16b\Jk	.
4G\ 4A\ 4e\	(>2cc#^<\	.
4G\ 4A\ 4e\	.	.
=36	=36	=36
4DD/ 4D/	8dd\L)	.
.	16r	.
.	16ff#\Jk	.
4F#\ 4A\ 4d\	2aa^\	.
4F#\ 4A\ 4d\	.	.
=37	=37	=37
.	(<16qqccc#/LL	.
.	16qqddd/JJ	.
4AAA/ 4AA/	8ccc#\L)	.
.	16r	.
.	16ee\Jk	.
2G\ 2A\ 2c#\	(>2bb^<\	.
=38	=38	=38
4DD/ 4D/	8aa\L)	.
.	16r	.
.	16ff#\Jk	.
2F#\ 2A\ 2d\	2dd^<\	.
=39	=39	=39
4AA/	8ee\L	.
.	16r	.
.	16b\Jk	.
4G\ 4A\ 4e\	(>2cc#\	.
4G\ 4A\ 4e\	.	.
!!LO:LB:g=original
=40	=40	=40
4D\ 4F#\ 4A\ 4d\	4dd\)	.
4DD/ 4D/	4dd\ 4ff#\ 4aa\ 4ddd\	sf
4r	4r	.
=41	=41	=41
4EE/ 4E/	4e^^>/	ff
!	!LO:TX:b:t=con energia	!
4E\ 4G#X\ 4d\	4e^^>/ 4g#X/ 4b/	.
4E^<\ 4G#\ 4d\	4e^^>/ 4g#/ 4b/ 4dd/	.
=42	=42	=42
.	16qqcc#/LL	.
.	16qqdd/JJ	.
4AA/	8.cc#\L	.
.	16b\Jk	.
4E\ 4A\ 4c#\	(>4a/	.
4E^<\ 4A 4c#	4a\) 4ee\	.
=43	=43	=43
4E\ 4G#X\ 4d\	(<4.e/	.
2E^<\ 2G#\ 2d\	.	.
.	8g#X/L)	.
.	8b/	.
.	8dd/J	.
=44	=44	=44
.	16qqcc#/LL	.
.	16qqdd/JJ	.
4A\ 4c#\	8.cc#\L	.
.	16b\Jk	.
2AA^>\ 2C#\ 2E\ 2A\	(>4a/	.
.	8a^<\) 8aa\	.
.	8r	.
=45	=45	=45
4EE/ 4E/	4e/	.
4E\ 4G#X\ 4d\	4e^^>/ 4g#X/ 4b/	.
4E\ 4G#\ 4d\	4e^^>/ 4g#/ 4dd/	.
=46	=46	=46
.	16qqcc#/LL	.
.	16qqdd/JJ	.
4AA/	8cc#\L	.
.	16r	.
.	16b\Jk	.
4E\ 4A\ 4c#\	(>4a/	.
4E\ 4A\ 4c#\	4ff#\)	.
!!LO:LB:g=original
=47	=47	=47
4E\ 4G#X\ 4d\	(<8e/L	.
.	8g#X/J)	.
2E^>\ 2G#\ 2d\	8b\L	.
.	8dd\	.
.	8ff#\	.
.	8ee\J	.
=48	=48	=48
.	16qqdd/LL	.
.	16qqee/JJ	.
4A\ 4c#\	8dd\L	.
.	8cc#\	.
2AA^>\ 2C#\ 2E\ 2A\	(>8b'>\	.
.	8a'>\	.
.	8g#X'>\	.
.	8f#'>\J)	.
=49	=49	=49
4EE/ 4BB/ 4E/	4e/	ff
4EE/ 4BB/ 4E/	4e/ 4b/	.
4EE^>/ 4BB/ 4E/	4e/ 4dd/	.
=50	=50	=50
.	16qqcc#/LL	.
.	16qqdd/JJ	.
4AAA/ 4EE/ 4AA/	8.e/L 8.cc#/	.
.	16b/Jk	.
4AAA/ 4EE/ 4AA/	4a/	.
4AAA^>/ 4EE/ 4AA/	4e^</ 4ee/	.
=51	=51	=51
4EE/ 4BB/ 4E/	4.e^>/	.
2EE^>/ 2BB/ 2E/	.	.
.	8g#X/L	.
.	8b/	.
.	8dd/J	.
=52	=52	=52
.	16qqcc#/LL	.
.	16qqdd/JJ	.
4AAA/ 4EE/ 4AA/	8.cc#\L	.
.	16b\Jk	.
2AAA^>/ 2EE/ 2AA/	(>4a/	.
.	8a\) 8aa\	sf
.	8r	.
=53	=53	=53
4EE/ 4E/	4e/	ff
4E\ 4G#X\ 4d\	4e^^>/ 4g#X/ 4b/	.
4E\ 4G#\ 4d\	4e^^>/ 4g#/ 4dd/	.
!!LO:LB:g=original
=54	=54	=54
.	16qqcc#/LL	.
.	16qqdd/JJ	.
4AA/	8.cc#\L	.
.	16b\Jk	.
4E\ 4A\ 4c#\	4a/	.
4E\ 4A\ 4c#\	4e^</ 4a/ 4ee/	.
=55	=55	=55
4E\ 4G#X\ 4d\	(>8e\L	.
.	8g#X\)	.
2E\ 2G#\ 2d\	8b\	.
.	8dd\	.
.	8ff#\	.
.	8ee\J	.
=56	=56	=56
4A\ 4c#\	4a/	.
8AAA#X/L 8AA#X/	4a\ 4cc#\ 4ee\ 4aa\	.
8BBB/ 8BB/	.	.
8BBB#X/ 8BB#X/	4A^^>/	.
8CC#/J 8C#/	.	.
=57	=57	=57
4DD/ 4AA/ 4D/	4d/ 4f#/ 4a/	ff
2DD^>/ 2AA/ 2D/	2d/ 2f#/ 2dd/	.
=58	=58	=58
4DD/ 4AA/ 4D/	4d/ 4f#/ 4a/	.
2DD^>/ 2AA/ 2D/	2f#\ 2a\ 2dd\ 2ff#\	.
=59	=59	=59
!	!LO:TUP:a:problem=klamra łukowa	!
4DD/ 4D/	12a\L	.
.	12dd\	.
.	12ff#\J	.
4D\ 4F#\ 4A\	4a\ 4aa\	.
4D\ 4F#\ 4B\	4b^^>\ 4bb\	.
=60	=60	=60
4D\ 4F#\ 4A\	8.a\L 8.aa\	.
.	16ff#\Jk	.
2DD^>/ 2AA/ 2D/	2d^>/ 2f#/ 2dd/	.
=61	=61	=61
4DD/ 4AA/ 4D/	4d/ 4f#/ 4a/	.
2DD^>/ 2AA/ 2D/	2d^>/ 2f#/ 2dd/	.
!!LO:LB:g=original
=62	=62	=62
4DD/ 4AA/ 4D/	4d/ 4f#/ 4a/	.
2DD^>/ 2AA/ 2D/	2f#^>\ 2a\ 2dd\ 2ff#\	.
=63	=63	=63
!	!LO:TUP:a:problem=klamra łukowa	!
4DD/ 4D/	12a\L	.
.	12dd\	.
.	12ff#\J	.
4D\ 4F#\ 4A\	4a\ 4aa\	.
4D\ 4F#\ 4B\	4b^>\ 4bb\	.
=64	=64	=64
4DD/ 4AA/ 4D/	8.a\L 8.aa\	.
.	16ff#\Jk	.
2D^>\ 2F#\ 2A\ 2d\	2dd^>\ 2ddd\	.
=65	=65	=65
.	16qqccc#/LL	p
!	!LO:TX:b:t=con eleganza	!
.	16qqddd/JJ	.
4AAA/ 4AA/	8ccc#\L	.
.	16r	.
.	16ee\Jk	.
*clefG2	*	*
2A^>/ 2c#/ 2g/	(>2bb\	.
*clefF4	*	*
=66	=66	=66
4DD/ 4D/	8aa\L)	.
.	16r	.
.	16ff#\Jk	.
*clefG2	*	*
2A^>/ 2d/ 2f#/	2dd\	.
*clefF4	*	*
=67	=67	=67
4AA/	8ee\L	.
.	16r	.
.	16b\Jk	.
4G\ 4A\ 4e\	(>2cc#\	.
4G\ 4A\ 4e\	.	.
=68	=68	=68
4D\	8dd\L)	.
.	16r	.
.	16ff#\Jk	.
4F#\ 4A\ 4d\	2aa^>\	.
4F#\ 4A\ 4d\	.	.
!!LO:PB:g=original
=69	=69	=69
.	16qqccc#/LL	.
.	16qqddd/JJ	.
4AA/	8ccc#\L	.
.	16r	.
.	16ee\Jk	.
2G^>\ 2A\ 2c#\	(>2bb\	.
=70	=70	=70
4DD/ 4D/	8aa\L)	.
.	16r	.
.	16ff#\Jk	.
2F#^>\ 2A\ 2d\	2dd\	.
=71	=71	=71
*	*^	*
4AA/	8ee\L	4ryy	.
.	16r	.	.
.	16b\Jk	.	.
4A\ 4e\	(>2cc#^>/	4r	.
4A\ 4e\	.	4g\	.
=72	=72	=72	=72
4D\ 4A\ 4d\	4dd/)	4f#\	.
4DD^^>/ 4AA/ 4D/	4dd^^>\ 4ff#\ 4aa\ 4ddd\	2ryy	sf
4r	4r	.	.
*	*v	*v	*
=73||	=73||	=73||
*^	*	*
*k[f#c#]	*k[f#c#]	*k[f#c#]	*
*ped	*	*	*
!	!	!LO:TX:a:B:t=Minore.	!
4r	2BB\	8.dd\L	p
.	.	16dd\Jk	.
!LO:TUP:a:problem=klamra łukowa	!	!	!
12f#/L	.	(>4.cc#\	.
12d/	.	.	.
12B/J	.	.	.
4F#/	4r	.	.
*Xped	*	*	*
.	.	8b\)	.
=74	=74	=74	=74
*ped	*	*	*
4r	2BB\	8b\L	.
.	.	16r	.
.	.	16b\Jk	.
!LO:TUP:a:problem=klamra łukowa	!	!	!
12f#/L	.	(<4.a/	.
12d/	.	.	.
12B/J	.	.	.
4F#/	4r	.	.
*Xped	*	*	*
.	.	8g/)	.
=75	=75	=75	=75
4r	2BB\	8.f#/L	.
.	.	16g/Jk	.
!LO:TUP:a:problem=klamra łukowa	!	!	!
12e/L	.	(>4f#/	.
12c#/	.	.	.
12A#X/J	.	.	.
4F#/	4r	4cc#\)	.
!!LO:LB:g=original
=76	=76	=76	=76
4r	2BB\	8f#/L	.
.	.	8cc#/J	.
!LO:TUP:a:problem=klamra łukowa	!	!	!
12e/L	.	(>4.ff#^>\	.
12c#/	.	.	.
12A#X/J	.	.	.
4F#/	4r	.	.
.	.	8ee\)	.
=77	=77	=77	=77
4r	2BB\	8dd\L	.
.	.	16r	.
.	.	16dd\Jk	.
!LO:TUP:a:problem=klamra łukowa	!	!	!
12f#/L	.	(>4.cc#\	.
12d/	.	.	.
12B/J	.	.	.
4F#/	4r	.	.
.	.	8b\)	.
=78	=78	=78	=78
4r	2BB\	8b\L	.
.	.	16r	.
.	.	16b\Jk	.
!LO:TUP:a:problem=klamra łukowa	!	!	!
12f#/L	.	(<4.a/	.
12d/	.	.	.
12B/J	.	.	.
4F#/	4r	.	.
.	.	8g/)	.
=79	=79	=79	=79
4r	2BB\	8f#/L	.
.	.	8cc#/J	.
!LO:TUP:a:problem=klamra łukowa	!	!	!
12e/L	.	4.ff#^>\	.
12c#/	.	.	.
12A#X/J	.	.	.
4F#/	4r	.	.
.	.	8a#X/	.
=80	=80	=80	=80
4r	2BB\	2b/	.
!LO:TUP:a:problem=klamra łukowa	!	!	!
12f#/L	.	.	.
12d/	.	.	.
12B/J	.	.	.
4F#/	4r	(>4f#/	.
=81	=81	=81	=81
4r	2BB\	8.dd\L)	.
.	.	16dd\Jk	.
!LO:TUP:a:problem=klamra łukowa	!	!	!
12f#/L	.	(>4.cc#\	.
12d/	.	.	.
12B/J	.	.	.
4B\ 4d\	4F#\	.	.
.	.	8b\)	.
!!LO:LB:g=original
=82	=82	=82	=82
4r	2BB\	8b\L	.
.	.	16r	.
.	.	16b\Jk	.
!LO:TUP:a:problem=klamra łukowa	!	!	!
12f#/L	.	4.a/	.
12d/	.	.	.
12B/J	.	.	.
4B\ 4d	4F#\	.	.
.	.	8g/	.
=83	=83	=83	=83
4r	2BB\	8.f#/L	.
.	.	16g/Jk	.
!LO:TUP:a:problem=klamra łukowa	!	!	!
12e/L	.	4f#/	.
12c#/	.	.	.
12A#X/J	.	.	.
4A#\ 4e	4F#\	4cc#\	.
=84	=84	=84	=84
4r	2BB\	(>8f#/L	.
.	.	8cc#/J	.
!LO:TUP:a:problem=klamra łukowa	!	!	!
12e/L	.	4.ff#^>\	.
12c#/	.	.	.
12A#X/J	.	.	.
4A#\ 4e\	4F#\	.	.
.	.	8ee\)	.
=85	=85	=85	=85
4r	2BB\	8.dd\L	.
.	.	16dd\Jk	.
!LO:TUP:a:problem=klamra łukowa	!	!	!
12f#/L	.	(>4.cc#\	.
12d/	.	.	.
12B/J	.	.	.
4B\ 4d	4F#\	.	.
.	.	8b\)	.
=86	=86	=86	=86
4r	2BB\	8b\L	.
.	.	16r	.
.	.	16b\Jk	.
!LO:TUP:a:problem=klamra łukowa	!	!	!
12f#/L	.	4a#X/	.
12d/	.	.	.
12B/J	.	.	.
4B\ 4d	4F#\	4b^^>\ 4bb	.
*v	*v	*	*
=87	=87	=87
4AAA/ 4AA/	8cc#^^>\L 8ccc#\	f <
.	16r	.
.	16cc#\Jk 16ccc#\	.
4r	4cc#\ 4ccc#\	.
4E\ 4G\ 4A\ 4d\	4dd^^>\ 4ddd\	[[
!!LO:LB:g=original
=88	=88	=88
4AAA/ 4AA/	8dd#X\L 8ddd#X\	.
.	16r	.
.	16dd#\Jk 16ddd#\	.
!LO:TUP:a:problem=klamra łukowa	!	!
12A\L	4dd#\ 4ddd#\	.
12E\	.	.
12C#\J	.	.
4AA^>\ 4C#\ 4G\	4ee^> 4eee\	.
=89	=89	=89
4DD/ 4AA/ 4D/	4d/ 4f#/ 4a/	ff
2DD^>/ 2AA/ 2D/	2d^>/ 2f#/ 2dd/	.
=90	=90	=90
4DD/ 4AA/ 4D/	4d/ 4f#/ 4a/	.
2DD^>/ 2AA/ 2D/	2d^>\ 2f#\ 2dd\ 2ff#\	.
=91	=91	=91
!	!LO:TUP:a:problem=klamra łukowa	!
4DD/ 4AA/ 4D/	12a\L	.
.	12dd\	.
.	12ff#\J	.
4DD/ 4AA/ 4D/	4a\ 4dd\ 4ff#\ 4aa\	.
4DD/ 4AA/ 4D/	4b^>\ 4dd\ 4ff#\ 4bb\	.
=92	=92	=92
4DD/ 4AA/ 4D/	(>8.a\L 8.dd\ 8.ff#\ 8.aa\	.
.	16ff#\Jk)	.
2DD^>/ 2AA/ 2D/	2dd^>\	.
=93	=93	=93
4DD/ 4AA/ 4D/	4d/ 4f#/ 4a/	.
2DD^>/ 2AA/ 2D/	2d^</ 2f#/ 2dd/	.
=94	=94	=94
4DD/ 4AA/ 4D/	4d/ 4f#/ 4a/	.
2DD^>/ 2AA/ 2D/	2d^>\ 2f#\ 2dd\ 2ff#\	.
=95	=95	=95
!	!LO:TUP:a:problem=klamra łukowa	!
4DD/ 4AA/ 4D/	12a\L	.
.	12dd\	.
.	12ff#\J	.
4DD/ 4AA/ 4D/	4a\ 4dd\ 4ff#\ 4aa\	.
4DD/ 4AA/ 4D/	4b\ 4dd\ 4ff#\ 4bb\	.
!!LO:LB:g=original
=96	=96	=96
4DD/ 4AA/ 4D/	8.a\L 8.dd\ 8.ff#\ 8.aa\	.
.	16ff#\Jk	.
2DD^</ 2AA/ 2D/	2dd^>\ 2ddd\	.
=97	=97	=97
.	16qqccc#/LL	p
.	16qqddd/JJ	.
4AA\ 4A\	8ccc#\L	.
.	16r	.
.	16ee\Jk	.
*clefG2	*	*
2A^>/ 2c#/ 2g/	(>2bb\	.
*clefF4	*	*
=98	=98	=98
4DD/ 4D/	8aa\L)	.
.	16r	.
.	16ff#'>\Jk	.
*clefG2	*	*
2A^>/ 2d/ 2f#/	2dd\	.
*clefF4	*	*
=99	=99	=99
4AA/	8ee\L	.
.	16r	.
.	16b\Jk	.
4G\ 4A\ 4e\	(>2cc#\	.
4G\ 4A\ 4e\	.	.
=100	=100	=100
4D\	8dd\L)	.
.	16r	.
.	16ff#\Jk	.
4F#\ 4A\ 4d\	2a\ 2aa\	.
4F#\ 4A\ 4d\	.	.
=101	=101	=101
.	16qqccc#/LL	.
.	16qqddd/JJ	.
4AA/	8ccc#\L	.
.	16r	.
.	16ee\Jk	.
2G^>\ 2A\ 2c#\	(>2bb\	.
!!LO:LB:g=original
=102	=102	=102
4DD/ 4D/	8aa\L)	.
.	16r	.
.	16ff#\Jk	.
2F#^>\ 2A\ 2d\	2dd\	.
=103	=103	=103
4AA/	8ee\L	.
.	16r	.
.	16b\Jk	.
4G\ 4A\ 4e\	2cc#\	.
4G\ 4A\ 4e\	.	.
=104	=104	=104
4D\ 4F#\ 4A\ 4d\	4f#/ 4a/ 4dd/	.
4DD/ 4D/	4dd\ 4ff#\ 4ddd\	sf
4r	4r	.
=105	=105	=105
!	!LO:TX:a:B:t=Risoluto.	!
2.r	8.dd\L	ff
.	16dd\Jk	.
.	4dd\	.
.	4dd\	sf
=106	=106	=106
8.d\L	8.dd\L	.
16d\Jk	16dd\Jk	.
4d\	4dd\	.
4d\	4dd\	sf
=107	=107	=107
!	!LO:TX:a:i:t=rall.	!
2.r	8.d/L	>
.	16d/Jk	.
.	4d/	.
.	4d^>/	.
=108	=108	=108
2.r	8.d/L	.
.	16d/Jk	.
.	4d/	.
.	4d^>/	]]
!!LO:PB:g=original
=109||	=109||	=109||
*kcancel	*kcancel	*
*k[f#]	*k[f#]	*
*^	*	*
*	*	*	*^
!	!	!LO:TX:a:B:t=Andantino.	!	!LO:HP:a
4G/	2.GG\ 2.D\	4B/ 4g	p	<
2A/	.	2c/ 2f#	.	[[
*	*	*	*v	*v
=110	=110	=110	=110
*	*	*^	*
!	!	!	!	!LO:HP:a
2G/	2.GG\ 2.D\	2g/	2.B\	>
4r	.	4r	.	]
*	*	*v	*v	*
=111	=111	=111	=111
!	!	!	!LO:HP:a
4G/	2.GG/ 2.D/	4B/ 4g	<
2A/	.	2c/ 2f#/	[[
=112	=112	=112	=112
*	*	*^	*
!	!	!	!	!LO:HP:a
2G/	2.GG\ 2.D\	2g/	2.B\	>
4r	.	4r	.	]
=113	=113	=113	=113	=113
4G/	2.GG\ 2.D\	8d/L	4B\	.
.	.	16qqg/LL	.	.
.	.	16qqa/JJ	.	.
.	.	8g/J	.	.
2A/	.	8f#/L	2c\	.
.	.	8g/	.	.
.	.	8a/	.	.
.	.	8f#/J	.	.
=114	=114	=114	=114	=114
2G/	2.GG\ 2.D\	8.g/L	2B\	.
.	.	16b/Jk	.	.
.	.	2dd^>/	.	.
4r	.	.	4r	.
=115	=115	=115	=115	=115
4G/	2.GG\ 2.D\	8d/L	4B\	.
.	.	16qqg/LL	.	.
.	.	16qqa/JJ	.	.
.	.	8g/J	.	.
2A/	.	8f#/L	2c\	.
.	.	8g/	.	.
.	.	8a/	.	.
.	.	8f#/J	.	.
=116	=116	=116	=116	=116
2G/	2.GG\ 2.D\	8.g/L	2B\	.
.	.	16b/Jk	.	.
.	.	2dd^>/	.	.
4r	.	.	4r	.
*v	*v	*	*	*
*	*v	*v	*
!!LO:LB:g=original
=117	=117	=117
(>2.C:\ 2.G:\ 2.e:\	8.ee\L	.
.	16ee\Jk	.
.	(>4.gg\	.
.	8ff#\)	.
=118	=118	=118
2.G\ 2.B\ 2.d\	8.dd\L	.
.	16b\Jk	.
.	2g/	.
=119	=119	=119
2.D\) 2.A\ 2.c\	(<8d/L	.
.	8e/J	.
.	8f#/L)	.
.	16qqf#/LL	.
.	16qqg/JJ	.
.	(<8f#/	.
.	8e/	.
.	8d/J)	.
=120	=120	=120
2.GG:\ 2.D:\ 2.Fn:\ 2.B:\	8.g/L	.
.	16a/Jk	.
.	(>2b^>/	.
=121	=121	=121
2.C\ 2.E\ 2.G\ 2.c\	8ee\L)	.
.	16r	.
.	16ee\Jk	.
.	4.gg\	.
.	8ff#\	.
=122	=122	=122
2.GG:\ 2.D:\ 2.B:\	8.dd\L	.
.	16b\Jk	.
.	2g/	.
=123	=123	=123
2.D\ 2.F#X\ 2.c\	8d/L	.
.	8e/J	.
.	8f#/L	.
.	16qqf#/LL	.
.	16qqg/JJ	.
.	8f#/	.
.	8e/	.
.	8d/J	.
!!LO:LB:g=original
=124	=124	=124
2.G\ 2.B\	(<8.a/L	.
.	16g/Jk)	.
.	4g'</	.
.	4r	.
=125	=125	=125
*^	*^	*
(>4G/	2.GG\ 2.D\	8d/L	(<4B\	.
.	.	16qqg/LL	.	.
.	.	16qqa/JJ	.	.
.	.	8g/J	.	.
(>2A/)	.	8f#/L	(<2c\)	.
.	.	8f#/	.	.
.	.	8e/	.	.
.	.	8d^^>/J	.	.
=126	=126	=126	=126	=126
*	*	*	*^	*
2G/)	2.GG\ 2.D\	4r	8g/L	2B\)	.
.	.	.	16r	.	.
.	.	.	(<16b/Jk	.	.
.	.	8.r	2dd\)	.	.
!	!	!LO:TX:b:B:t=eco	!	!	!
!	!	!LO:TX:a:B:t=m.g.	!	!	!
.	.	(>16bb/	.	.	.
4r	.	4ddd/)	.	4r	.
*v	*v	*	*	*	*
*	*	*v	*v	*
=127	=127	=127	=127
4GG\ 4D\ 4G\	8.d/L	4B\	.
.	16qqg/LL	.	.
.	16qqa/JJ	.	.
.	16g/Jk	.	.
2GG\ 2D\ 2A\	8f#^>/L	2c\	.
.	8f#/	.	.
.	8e/	.	.
.	8d/J	.	.
=128	=128	=128	=128
*	*	*^	*
2.GG/ 2.D/	4r	8g/L	2B\	.
.	.	16r	.	.
.	.	(<16b/Jk	.	.
.	8.r	2dd\)	.	.
!	!	!LO:TX:a:B:t=m.g.	!	!
.	(>16bb/	.	.	.
.	4ddd/)	.	4r	.
*	*	*v	*v	*
*	*v	*v	*
=129	=129	=129
2.C:\ 2.G:\ 2.e:\	8.ee\L	.
.	16ee\Jk	.
.	4.gg\	.
.	8ff#\	.
!!LO:LB:g=original
=130	=130	=130
*	*^	*
2.G\ 2.B\ 2.d\	4r	8.dd\L	.
.	.	16b\Jk	.
.	8.r	2g\	.
!	!LO:TX:a:B:t=m.g.	!	!
.	16bb/	.	.
.	4gg/	.	.
*	*v	*v	*
=131	=131	=131
2.D\ 2.F#\ 2.A\ 2.c\	(<8d/L	.
.	8e/J	.
.	8f#/L)	.
.	16qqf#/LL	.
.	16qqg/JJ	.
.	(<8f#/	.
.	8e/	.
.	8d/J)	.
=132	=132	=132
*	*^	*
2.GG:\ 2.D:\ 2.Fn:\ 2.B:\	4r	8.g\L	.
.	.	(>16a\Jk	.
.	8.r	2b^<\)	.
!	!LO:TX:a:B:t=m.g.	!	!
.	(>16aa/	.	.
.	4bb/)	.	.
*	*v	*v	*
=133	=133	=133
2.C\ 2.E\ 2.G\ 2.c\	8ee\L	<
.	16r	.
.	16ee\Jk	.
.	(>4.gg^>\	.
.	8ff#\)	[[
=134	=134	=134
*	*^	*
2.GG:\ 2.D:\ 2.B:\	4r	8.dd\L	.
.	.	(>16b\Jk	.
.	8.r	2g\)	.
!	!	!LO:TX:a:B:t=m.g.	!
.	(>16bb/	.	.
.	4gg/)	.	.
*	*v	*v	*
=135	=135	=135
!	!LO:TX:a:i:t=rallentando	!
2.D\ 2.F#\ 2.c\	8d/L	.
.	8e/J	.
.	8f#/L	.
.	16qqf#/LL	.
.	16qqg/JJ	.
.	8f#/	.
.	8e/	.
.	8d/J	.
=136	=136	=136
*	*^	*
2.GG:\ 2.D:\ 2.B:\	4r	8.a\L	.
.	.	16g\Jk	.
!	!	!LO:TX:a:B:t=m.g.	!
.	8.aa/L	4g^>\	.
.	16gg/Jk	.	.
.	4gg;>/	4r	.
*	*v	*v	*
!!LO:LB:g=original
=137	=137	=137
*^	*	*
!	!	!LO:TX:a:B:t=Animato.	!
4r	2.FF#\ 2.F#\	4f#/	f
4B/ 4d/	.	8b\L	.
.	.	8dd\	.
4A#X/ 4e/	.	8cc#X\	.
.	.	8a#X\J	<
=138	=138	=138	=138
4r	2.FF#\ 2.F#\	8b\L	.
.	.	16r	[
.	.	16dd\Jk	.
!LO:TX:t=P:problem=fermaty nad i pod kreskami taktowymi	!	!	!
2B/ 2d/;	.	2ff#^>\;	f
=139	=139	=139	=139
!	!	!LO:TX:a:i:t=più lento	!
4r	2.FF#\ 2.F#\	4f#/	pp
(>4B/ 4d/	.	(>8b\L	.
.	.	8dd\	.
4A#X/) 4e/	.	8cc#X\)	.
.	.	8a#X'>\J	.
=140	=140	=140	=140
!	!	!LO:TX:a:i:t=rall.	!
4BB/	4ryy	(<4d/ 4b/	<
(>4A/	2E\	4.fn/	.
4G#X/)	.	.	.
.	.	8e/)	[[
=141	=141	=141	=141
!	!	!LO:TX:a:B:t=a tempo.	!
4r	2.AAA\ 2.AA\	4e/	f
(>4A/ 4cn/	.	8a/L	<
.	.	8ccn/	.
4G#X/) 4d/	.	8b/	.
.	.	8g#X/J	.
=142	=142	=142	=142
4r	2.AAA\ 2.AA\	8a/L	.
.	.	16r	.
.	.	16cc/Jk	.
2A/ 2c/;	.	2ee^>\;	[ f
!LO:TX:t=P:problem=fermaty nad i pod pięcioliniamii na kresce taktowej	!	!	!
=143	=143	=143	=143
!	!	!LO:TX:a:i:t=più lento	!
4r	2.AA\	4e/	pp
(>4A/ 4c/	.	(<8a/L	.
.	.	8cc/	.
4G#X/) 4d/	.	8b/)	.
.	.	8g#X'</J	.
!!LO:LB:g=original
=144	=144	=144	=144
*	*	*^	*
4A\	4AA\	4a/	2.c/	<
!	!	!LO:TX:a:i:t=rall.	!	!
(>4G/	2D\	4.e-X^</	.	.
4F#/)	.	.	.	.
.	.	8d/	.	.
=145||	=145||	=145||	=145||	=145||
!	!	!LO:TX:a:B:t=Andantino calando.	!	!
(>4G/	2.GG\ 2.D\	8.d/L	(<4B\	[
.	.	16qqg/LL	.	.
.	.	16qqa/JJ	.	.
.	.	16g/Jk	.	.
2A/	.	8f#/L	2c\	.
.	.	8g/	.	.
.	.	8a/	.	.
.	.	8f#/J	.	.
=146	=146	=146	=146	=146
*	*	*	*^	*
2G/)	2.GG\ 2.D\	4r	8.g/L	2B\)	.
.	.	.	16b/Jk	.	.
.	.	8.r	2b^<\	.	.
!	!	!LO:TX:a:t=m.g.	!	!	!
.	.	(>16bb/	.	.	.
4r	.	4ddd/)	.	4r	.
*	*	*	*v	*v	*
=147	=147	=147	=147	=147
4G/	2.GG\ 2.D\	8.d/L	4B\	.
.	.	16qqg/LL	.	.
.	.	16qqa/JJ	.	.
.	.	16g/Jk	.	.
2A/	.	8f#/L	2c\	.
.	.	8g/	.	.
.	.	8a/	.	.
.	.	8f#/J	.	.
*v	*v	*	*	*
=148	=148	=148	=148
2.GG:\ 2.D:\ 2.B:\	4r	8.g\L	.
.	.	16b\Jk	.
.	8.r	2dd\	.
!	!	!LO:TX:a:t=m.g.	!
.	16bb/	.	.
.	4ddd/	.	.
*	*v	*v	*
=149	=149	=149
!	!LO:TX:b:i:t=poco a poco	!
2.GG:\ 2.E:\ 2.c:\	8ee\L	.
.	16r	.
.	16ee\Jk	.
.	4.gg\	.
.	8ff#\	.
=150	=150	=150
*	*^	*
2.GG:\ 2.D:\ 2.B:\	4rgg	8.dd\L	.
.	.	16b\Jk	.
!	!	!LO:TX:i:b:t=rallen-tando:dur=3q:ext=ud:problem=text with extention lines	!
.	8.r	2g\	.
!	!	!LO:TX:a:t=m.g.	!
.	16bb/	.	.
.	4gg/	.	.
*	*v	*v	*
!!LO:PB:g=original
=151	=151	=151
*^	*	*
2.c/	2.GG\ 2.F#\	8d/L	.
.	.	8e/J	.
.	.	8f#/L	.
.	.	16qqf#/LL	.
.	.	16qqg/JJ	.
.	.	8f#/	.
.	.	8e/	.
.	.	8d/J	.
=152	=152	=152	=152
*	*	*^	*
2.B/	2.GG\ 2.Fn\	4r	8g\L	.
.	.	.	16r	.
.	.	.	(>16a\Jk	.
.	.	8.r	2b\)	.
!	!	!	!LO:TX:a:t=m.g.	!
.	.	(>16aa/	.	.
.	.	4bb/)	.	.
*	*	*v	*v	*
*v	*v	*	*
=153	=153	=153
2.GG:\ 2.E:\ 2.c:\	8ee\L	.
.	16r	.
.	16ee\Jk	.
.	4.gg\	.
.	8ff#\	.
=154	=154	=154
*	*^	*
2.GG:\ 2.D:\ 2.B:\	4raa	8.dd\L	.
.	.	(>16b\Jk	.
.	8.r	2g\)	.
!	!	!LO:TX:a:t=m.g.	!
.	(>16bb/	.	.
.	4gg/)	.	.
*	*v	*v	*
=155	=155	=155
*^	*	*
2.c/	2.GG\ 2.D\ 2.F#\	8d/L	.
.	.	8e/J	.
.	.	8f#/L	.
.	.	16qqf#/LL	.
.	.	16qqg/JJ	.
.	.	8f#/	.
.	.	8e/	.
.	.	8d/J	.
=156	=156	=156	=156
*	*	*^	*
!	!	!	!LO:TX:b:B:i:t=Lunga Pausa	!
2.B/	2.GG\ 2.D\ 2.G\	4r	8.a\L	.
.	.	.	16g\Jk	.
!	!	!	!LO:TX:a:t=m.g.	!
.	.	8.aa/L	4g\	.
.	.	16gg/Jk	.	.
.	.	4gg;>/	4r;yy	.
*v	*v	*	*	*
*	*v	*v	*
!!LO:LB:g=original
=157||	=157||	=157||
*k[]	*k[]	*
!	!LO:TUP:b:problem=klamra łukowa	!
4CC/ 4GG/ 4C/	12g/L	ff
.	12a/	.
.	12b/J	.
4CC/ 4GG/ 4C/	4cc\	.
4CC/ 4GG/ 4C/	4f^^>/ 4g/ 4dd/	.
=158	=158	=158
4CC/ 4GG/ 4C/	8.ee\L	.
.	16ff\Jk	.
4CC/ 4GG/ 4C/	4ff#X\	.
4CC/ 4GG/ 4C/	4g^^>\ 4cc\ 4ee\ 4gg\	.
=159	=159	=159
!	!LO:TUP:b:problem=klamra łukowa	!
4CC/ 4GG/ 4C/	12g/L	.
.	12a/	.
.	12b/J	.
4CC/ 4GG/ 4C/	4cc\	.
4CC/ 4GG/ 4C/	4f^^>/ 4g/ 4dd/	.
=160	=160	=160
4CC/ 4GG/ 4C/	8.ee\L	.
.	16ff\Jk	.
4CC/ 4GG/ 4C/	4ff#X\	.
4CC/ 4GG/ 4C/	4g^^>\ 4cc\ 4ee\ 4gg\	.
=161	=161	=161
*^	*	*
4r	2GGG\ 2GG\	8g\L 8b\ 8dd\ 8gg\	.
.	.	16r	.
.	.	16gg#X\Jk	.
2G/ 2B/ 2f/	.	4.aa^>\	.
.	4r	.	.
.	.	8b\	.
=162	=162	=162	=162
4r	2CC\ 2C\	8dd\L	.
.	.	16rcc	.
.	.	16cc\Jk	.
2G/ 2c/ 2e/	.	4.b\	.
.	4r	.	.
.	.	8a/	.
=163	=163	=163	=163
4r	2GG\	8.f#X/L	.
.	.	16g/Jk	.
4G/ 4B/ 4f/	.	4a/	.
4G/ 4B/ 4f/	4r	4b/	.
!!LO:LB:g=original
=164	=164	=164	=164
.	.	16qqcc/LL	.
.	.	16qqdd/JJ	.
4r	2CC\ 2C\	8cc\L	.
.	.	8b^>\	.
4G/ 4c/ 4e/	.	8cc^>\	.
.	.	8dd^>\	.
4G/ 4c/ 4e/	4r	8ee^>\	.
.	.	8ff^>\J	.
=165	=165	=165	=165
4r	2GGG\ 2GG\	8g\L 8b\ 8dd\ 8gg\	.
.	.	16r	.
.	.	16gg#X\Jk	.
2G^</ 2B/ 2f/	.	(>4.aa^<\	.
.	4r	.	.
.	.	8b\)	.
=166	=166	=166	=166
4r	2CC\ 2C\	8dd\L	.
.	.	16r	.
.	.	16cc\Jk	.
2G/ 2c/ 2e/	.	(>4.b^>\	.
.	4r	.	.
.	.	8a/)	.
*v	*v	*	*
=167	=167	=167
4GG/	8.f#X/L	.
.	16g/Jk	.
4G\ 4B\ 4f\	(>4.ee\	.
4G\ 4B 4f	.	.
.	8dd\)	.
=168	=168	=168
.	16qqcc/LL	.
.	16qqdd/JJ	.
4C/	8.cc\L	.
.	16b\Jk	.
4C:\ 4G:\ 4e:\	4cc\	.
4r	4r	.
=169	=169	=169
!	!LO:TUP:b:problem=klamra łukowa	!
4CC/ 4GG/ 4C/	12e/L 12g/	ff
.	12a/	.
.	12b/J	.
4CC/ 4GG/ 4C/	4cc\	.
4CC/ 4GG/ 4C/	4f/ 4g/ 4dd/	sf
=170	=170	=170
4CC/ 4GG/ 4C/	8.e\L 8.g\ 8.ee\	.
.	16f\Jk 16ff\	.
4CC/ 4GG/ 4C/	4f#X\ 4ff#X\	.
4CC/ 4GG/ 4C/	4g\ 4gg\	sf
!!LO:LB:g=original
=171	=171	=171
!	!LO:TUP:b:problem=klamra łukowa	!
4CC/ 4GG/ 4C/	12e/L 12g/	.
.	12a/	.
.	12b/J	.
4CC/ 4GG/ 4C/	4cc\	.
4CC/ 4GG/ 4C/	4f/ 4g/ 4dd/	sf
=172	=172	=172
4CC/ 4GG/ 4C/	8.e\L 8.g\ 8.ee\	.
.	16f\Jk 16ff\	.
4CC/ 4GG/ 4C/	4f#X\ 4ff#X\	.
4CC/ 4GG/ 4C/	4g\ 4gg\	sf
=173	=173	=173
4GGG/ 4GG/	8.g\L 8.gg\	.
.	16g#X\Jk 16gg#X\	.
2F^>\ 2G\ 2B\ 2d\	(>4.a\ 4.aa\	.
.	8b\)	.
=174	=174	=174
4CC/ 4C/	8.dd\L	.
.	16cc\Jk	.
2E\ 2G\ 2c\	(>4.b\	>
.	8a/)	]]
=175	=175	=175
4GGG/ 4GG/	8.f#X/L	.
.	16g/Jk	.
4F\ 4G\ 4B\ 4d\	4a/	.
4F\ 4G\ 4B\ 4d\	4b/	.
=176	=176	=176
.	16qqcc/LL	.
.	16qqdd/JJ	.
4CC/ 4C/	8cc'>\L	.
.	8b'>\	.
4E\ 4G\ 4c\	8cc'>\	.
.	8dd'>\	.
4E\ 4G\ 4c\	8ee'>\	.
.	8ff'>\J	.
=177	=177	=177
4GGG/ 4GG/	8.g\L 8.gg\	.
.	16g#X\Jk 16gg#X\	.
2F^>\ 2G\ 2B\ 2d\	(>4.a\ 4.aa\	.
.	8b\)	.
!!LO:LB:g=original
=178	=178	=178
4CC/ 4C/	8.dd\L	.
.	16cc\Jk	.
2E\ 2G\ 2c\	4.b\	>
.	8a/	]]
=179	=179	=179
4GGG/ 4GG/	8.f#X/L	.
.	16g/Jk	.
4F\ 4G\ 4B\ 4d\	(>4.ee\	>
4F\ 4G\ 4B\ 4d\	.	.
.	8dd\)	]]
=180	=180	=180
.	16qqcc/LL	.
.	16qqdd/JJ	.
4CC/ 4C/	8.cc\L	.
.	16b\Jk	.
4E\ 4G\ 4c\	4cc\	.
4rD;>	4r;>	.
=181	=181	=181
.	16qqcc/LL	.
!	!LO:TX:a:t=rall.	!
.	16qqdd/JJ	.
!	!	!LO:DY:b=2
2.d\ 2.f\	8.cc\L	pp
.	16b\Jk	.
.	[>2cc^<\	.
=182	=182	=182
.	16qqcc/LL	.
.	16qqdd/JJ	.
2.d#X\ 2.f#X\	8.cc\L]	.
.	16b\Jk	.
.	[>2cc^<\	.
=183	=183	=183
.	(<16qqcc/LL	.
.	16qqdd/JJ	.
2.e\ 2.g\	8cc\L])	.
.	8b\J	.
.	(>4.cc^^>\	.
.	8b-X\)	.
=184||	=184||	=184||
*k[b-]	*k[b-]	*
*^	*	*
!	!	!LO:TX:b:i:t=con melancolia	!
!	!	!LO:TX:a:B:t=Più lento.	!LO:DY:rj
4r	2.FF\	4.a/	p
2C^>/ 2A/	.	.	.
.	.	(>8a\L	.
.	.	8cc\	.
.	.	8ff\J)	.
!!LO:LB:g=original
=185	=185	=185	=185
.	.	16qqff/LL	.
.	.	16qqgg/JJ	.
4r	2.FF\	8ff\L	.
.	.	16r	.
.	.	16ee\Jk	.
2C^>/ 2B-/	.	2gg^>\	.
=186	=186	=186	=186
.	.	16qqdd/LL	.
.	.	16qqee/JJ	.
4r	2.FF\	8dd\L	.
.	.	16r	.
.	.	16cc\Jk	.
2C^>/ 2B-/	.	2ee^>\	.
=187	=187	=187	=187
.	.	16qqb-/LL	.
.	.	16qqcc/JJ	.
*	*	*^	*
4r	4FF\	8b-/L	4ryy	.
.	.	16r	.	.
.	.	16a/Jk	.	.
(>4Bn/	2F^<\	(>4dd/	4g#X\	.
4c/)	.	4cc/)	4a\	.
*	*	*v	*v	*
=188	=188	=188	=188
4r	2.FF\	4.a/	.
2C^>/ 2A/	.	.	.
.	.	(>8a^>\L	<
.	.	8cc^>\	.
.	.	8ff^>\J)	[[
*v	*v	*	*
=189	=189	=189
.	16qqff/LL	.
.	16qqgg/JJ	.
4EE/ 4E/	8ff\L	f
.	16r	.
.	16ee\Jk	.
2E^>\ 2A\ 2c#X\	2a^>\ 2aa\	.
=190	=190	=190
.	16qqcc#X/LL	.
!	!LO:TX:b:i:t=animato:rj	!
.	16qqdd/JJ	.
4E\ 4G#X\ 4d\	8cc#\L	.
.	16r	.
.	16bn\Jk	.
(<2E\ 2G#\ (>2d\	2e^>/ 2ee/	.
=191	=191	=191
.	16qqa/LL	.
.	16qqbn/JJ	.
4A\) 4c#X)	8a/L	.
.	16r	.
.	16g#X/Jk	.
2A;>\ 2c#\ 2e\	2a;>/	f
!!LO:PB:g=original
=192	=192	=192
*^	*	*
4r	2.FF\	4.a/	pp
2C^>/ 2A/	.	.	.
.	.	(>8a\L	.
.	.	8cc\	.
.	.	8ff\J)	.
=193	=193	=193	=193
.	.	16qqff/LL	.
.	.	16qqgg/JJ	.
4r	2.FF\	8ff\L	.
.	.	16r	.
.	.	16ee\Jk	.
2C^>/ 2B-/	.	2gg^>\	.
=194	=194	=194	=194
.	.	16qqdd/LL	.
.	.	16qqee/JJ	.
4r	2.FF\	8dd\L	.
.	.	16r	.
.	.	16cc\Jk	.
2C^>/ 2B-/	.	2ee^>\	.
=195	=195	=195	=195
.	.	16qqb-/LL	.
.	.	16qqcc/JJ	.
4F/	2.FF\	8b-/L	.
.	.	16r	.
.	.	16a/Jk	.
(>4G#X/ 4Bn/	.	(>4dd^>\	.
4A/) 4c/	.	4cc\)	.
=196	=196	=196	=196
4r	2.FF\	4.a/	.
2C/ 2A/	.	.	.
.	.	(>8a^>\L	.
.	.	8cc^>\	.
.	.	8ff^>\J)	.
=197	=197	=197	=197
.	.	16qqff/LL	.
.	.	16qqgg/JJ	.
4G/	4GG\ 4C\ 4E\	8ff\L	.
.	.	16r	.
.	.	16ee\Jk	.
2c^>\	2E\ 2G\	2cc^>\ 2ccc\	.
*v	*v	*	*
=198	=198	=198
.	16qqee/LL	.
.	16qqff/JJ	.
4GG/	8ee\L	.
.	16r	.
.	16dd\Jk	.
(<2G\ 2Bn (>2f	2g^>\ 2gg\	.
!!LO:LB:g=original
=199	=199	=199
4c\) 4e\)	4cc\	.
4CC/ 4EE/ 4GG/ 4C/	8cc\ 8ee\ 8gg\ 8ccc\	sf
!	!LO:TX:a:i:t=più mosso	!
.	8cc\L	.
4r	8dd-X\	.
.	8ddn\J	.
=200||	=200||	=200||
*k[b-e-a-d-]	*k[b-e-a-d-]	*
!	!LO:TX:a:B:t=Animato.	!
4EE-/ 4E-/	4.ee-\	.
4E-\ 4G\ 4d-\	.	.
.	8dd-\L	.
4r	8b-\	.
.	8g\J	>
=201	=201	=201
4EE-/ 4E-/	8e-/L	.
.	16r	]
.	16a-/Jk	.
4E-\ 4A-\ 4c\	4cc\	.
4E-\ 4A-\ 4c\	4ff\	.
=202	=202	=202
4EE-/ 4E-/	(>4.ee-\	.
4E-\ 4G\ 4d-\	.	.
.	8dd-\L	.
4r	8b-\	.
.	8g\J)	>
=203	=203	=203
4EE-/ 4E-/	(>8e-\L	.
.	8cc\	]
4E-\ 4A-\ 4c\	8ee-\	.
.	16ccc\Jk)	.
.	16r	.
4E-\ 4A-\ 4c\	8aa-^>\L	>
.	8ff^>\J	.
=204	=204	=204
4EE-/ 4E-/	[>4ee-^>\	.
4E-\ 4G\ 4B-\ 4d-\	8ee-\L]	]
.	16r	.
.	16dd-\Jk	.
4E-\ 4G\ 4B-\ 4d-\	8b-/L	.
.	16r	.
.	16g/Jk	>]
!!LO:LB:g=original
=205	=205	=205
4AAA-/ 4AA-/	8.e-/L	.
.	16a-/Jk	.
4E-\ 4A-\ 4c\	4e-/ 4cc/	.
4E-\ 4A-\ 4c\	4e-/ 4ee-/	.
=206	=206	=206
*	*^	*
2GGG#X/ 2GG#X/	8.een/L	8.en\L 8.bn\	ff
.	16ee/Jk	16e\Jk 16b\	.
.	16qqee/LL	.	.
.	16qqgg#X/JJ	.	.
.	4ff#X/	4b\ 4ddn\	.
4FFF##X/ 4FF##X/	4ee/	4e\ 4a#X\ 4cc#X\	.
=207	=207	=207	=207
2GGG#X/ 2GG#X/	8.een/L	8.en\L 8.bn\	.
.	16ee/Jk	16e\Jk 16b\	.
.	16qqee/LL	.	.
.	16qqgg#X/JJ	.	.
.	4ff#X/	4b\ 4ddn\	.
4AAA#X/ 4AA#X/	4ee/	4f##X\ 4cc#X\	.
*	*v	*v	*
=208||	=208||	=208||
*k[f#c#g#]	*k[f#c#g#]	*
4BBB/ 4BB/	4.g#X\ 4.dd\ 4.ee\	sf
4E\ 4G# 4d	.	.
.	8dd\L	.
4rC	8b\	.
.	8g#\J	p
=209	=209	=209
4CC#/ 4C#/	8e/L	.
.	16r	.
.	16a/Jk	.
4E\ 4A\ 4c#\	(>4e/ 4cc#/	.
4E\ 4A\ 4c#\	4e^>\) 4ff#\	.
=210	=210	=210
4GGG#/ 4GG#/	(>4.e^>\ 4.ee\	.
4E\ 4B\ 4d\	.	.
.	8dd\L)	.
4rD	8b\	.
.	8g#\J	.
!!LO:LB:g=original
=211	=211	=211
4AAA/ 4AA/	(>8e\L	.
.	8cc#\	.
4E\ 4A\ 4c#\	8ee\	.
.	16ccc#\Jk)	.
.	16r	.
4E\ 4A\ 4c#\	8aa^>\L	.
.	8ff#^>\J	.
=212	=212	=212
4BBB/ 4BB/	4.ee^>\	.
4E\ 4G#\ 4d\	.	.
.	8dd\L	.
4r	8b\	.
.	8g#\J	.
=213	=213	=213
4CC#/ 4C#/	8.e/L	.
.	16a/Jk	.
4E\ 4A\ 4c#\	4cc#\	.
4E\ 4A\ 4c#\	4ee^>\	.
=214	=214	=214
*	*^	*
2CC#/ 2C#/	8.aa/L	8.ee\L 8.ggn\	ff
.	16aa/Jk	16ee\Jk 16gg\	.
.	(<16qqbb/LL	.	.
.	16qqccc#/JJ	.	.
.	4bb/)	4ee\ 4gg\	.
4BBB#X/ 4BB#X/	4aa/	4dd#X\ 4ff#\	sf
=215	=215	=215	=215
2CC#/ 2C#/	8.aa/L	8.ee\L 8.ggn\	ff
.	16aa/Jk	16ee\Jk 16gg\	.
.	(<16qqbb/LL	.	.
.	16qqccc#/JJ	.	.
.	4bb/)	4ee\ 4gg\	.
4BBB#X/ 4BB#X/	4aa/	4dd#X\ 4ff#\	sf
*	*v	*v	*
=216	=216	=216
!	!LO:TX:b:i:t=ritenuto e pesante	!
8.CC#/L 8.C#/	8.a\L 8.ee\ 8.ggn\ 8.aa\	.
16AAA/Jk 16AA/	16a\Jk 16aa\	.
4AAA^^>/ 4AA/	4a^^>\ 4aa\	.
4AAA^^>/ 4AA/	4a^^>\ 4aa\	.
!!LO:LB:g=original
=217	=217	=217
4AAA^^>/ 4AA/	4a^^>\ 4aa\	.
4AAA^^>/ 4AA/	4a^^>\ 4aa\	.
4AAA^^>/ 4AA/	4a^^>\ 4aa\	.
=218||	=218||	=218||
*k[f#c#]	*k[f#c#]	*
!	!LO:TX:a:B:t=Allegro vivace.	!
8qGG#X/	8qgg#X/	.
2DD/ 2AA/	2a\ 2aa\	ff
.	8qgg#/	.
4DD^>/ 4AA/	4a^<\ 4aa\	.
=219	=219	=219
8qGG#X/	8qgg#X/	.
2DD/ 2AA/	2a\ 2aa\	.
.	8qgg#/	.
4DD^>/ 4AA/	4a^<\ 4aa\	.
=220	=220	=220
8qGG#X/	8qgg#X/	.
2DD/ 2AA/	2a\ 2aa\	.
.	8qgg#/	.
4DD^>/ 4AA/	4a^<\ 4aa\	.
=221	=221	=221
8qGG#X/	8qgg#X/	.
2DD/ 2AA/	2a\ 2aa\	.
.	8qgg#/	.
4DD^>/ 4AA/	4a^<\ 4aa\	.
=222	=222	=222
8qGG#X/	.	.
*	*^	*
2DD/ 2AA/	8ff#/L	4a\	.
.	8gg#X/J	.	.
.	8qbb/	.	.
.	8aa/L	4a\	.
.	8gg#/	.	.
4DD^>/ 4AA/	8aa/	4r	.
.	8ff#/J	.	.
=223	=223	=223	=223
8qGG#X/	.	.	.
2DD/ 2AA/ 2C#/	4ee^^>/	4a\	.
.	4ee^^>/	4a\	.
4DD^>/ 4AA/ 4C#/	4ee^^>/	4a\	.
=224	=224	=224	=224
8qGG#X/	.	.	.
2DD/ 2AA/ 2D/	8dd/L	2a\	.
.	8ff#/J	.	.
.	8qbb/	.	.
.	8aa/L	.	.
.	8gg#X/	.	.
4DD^>/ 4AA/ 4D/	8aa/	4a\	.
.	8ff#/J	.	.
*	*v	*v	*
!!LO:LB:g=original
=225	=225	=225
8qGG#X/	.	.
2DD/ 2AA/ 2D/	4a^^>\ 4ee\	.
.	4a^^>\ 4ee\	.
4DD^>/ 4AA/ 4D/	4a^^>\ 4ee\	.
=226	=226	=226
8qGG#X/	.	.
*	*^	*
2DD/ 2AA/ 2D/	8ff#/L	4a\	.
.	8gg#X/J	.	.
.	8qbb/	.	.
.	(>8aa/L	4a\	.
.	8gg#/)	.	.
4DD^>/ 4AA/ 4D/	8aa'>/	4a\	.
.	8ff#'>/J	.	.
=227	=227	=227	=227
8qGG#X/	.	.	.
2DD/ 2AA/ 2D/	4ee/	4a\^^<	.
.	4ee/	4a\^^<	.
4DD^>/ 4AA/ 4D/	4ee/	4a\^^<	.
*	*v	*v	*
=228	=228	=228
8qGG#X/	.	.
2DD/ 2AA/ 2D/	8dd\L	.
.	8ff#\J	.
.	8qbb/	.
.	(>8aa\L	.
.	8gg#X\	.
4DD^>/ 4AA/ 4D/	8aa\)	.
.	8ff#'>\J	.
=229	=229	=229
8qGG#X/	.	.
2DD/ 2AA/ 2D/	4e^^>/ 4a/ 4cc#/ 4ee/	.
.	4a^^>\ 4ee\	.
4DD^>/ 4AA/ 4D/	4a^^>\ 4ee\	.
=230	=230	=230
8qD#X/	.	.
*	*^	*
2AA\ 2E\ 2G#X\	4ee/	8b\L	.
.	.	8cc#\J	.
.	4.ee/	(<8dd\L	.
.	.	8cc#\	.
4AA\ 4E\ 4G#\	.	8dd\)	.
.	8ee/	8b'<\J	.
=231	=231	=231	=231
8qD#X/	.	.	.
2AA\ 2C#\ 2E\ 2A\	4ee/	4cc#\^^<	.
.	4ee/	4ee^^<\	.
4AA\ 4C#\ 4E\ 4A\	4ee/	4ee^^<\	.
!!LO:PB:g=original
=232	=232	=232	=232
8qD#X/	.	.	.
2AA\ 2E\ 2G#X\	4ee/	8b\L	.
.	.	8cc#\J	.
.	4.ee/	8dd\L	.
.	.	8cc#\	.
4AA\ 4E\ 4G#\	.	8dd\	.
.	8ee/	8b\J	.
=233	=233	=233	=233
8qD#X/	.	.	.
2AA\ 2C#\ 2E\ 2A\	4ee/	4cc#\^^<	.
.	4ee/	4a\^^<	.
4AA\ 4C#\ 4E\ 4A\	4ee/	4a\^^<	.
=234	=234	=234	=234
8qD#X/	.	.	.
2AA\ 2E\ 2G#X\	4ee/	8b\L	.
.	.	8cc#\J	.
.	4.ee/	(<8dd\L	.
.	.	8cc#\	.
4AA\ 4E\ 4G#\	.	8dd\)	.
.	8ee/	8b'<\J	.
=235	=235	=235	=235
8qD#X/	.	.	.
2AA\ 2C#\ 2E\ 2A\	4ee/	4cc#\	.
.	4ee/	4ee\	.
4AA\ 4C#\ 4E\ 4A\	4ee/	4ee\	.
=236	=236	=236	=236
8qD#X/	.	.	.
2AA\ 2E\ 2G#X\	4ee/	8b\L	.
.	.	8cc#\J	.
.	4.ee/	8dd\L	.
.	.	8cc#\	.
4AA\ 4E\ 4G#\	.	8dd\	.
.	8ee/	8b\J	.
=237	=237	=237	=237
8qD#X/	.	.	.
2AA\ 2C#\ 2E\ 2A\	4ee/	4cc#\	.
.	4ee^^>/	4a\	.
4AA\ 4C#\ 4E\ 4A\	4ee^^>/	4a\	.
=238	=238	=238	=238
8qG#X/	.	.	.
2D\ 2A\ 2d\	8ff#/L	4a\	.
.	8gg#X/J	.	.
.	8qbb/	.	.
.	8aa/L	4.a^^<\	.
.	8gg#/	.	.
4D\ 4A\ 4d\	8aa/	.	.
.	8ff#/J	8a\	.
!!LO:LB:g=original
=239	=239	=239	=239
8qG#X/	.	.	.
*^	*	*	*
2.c#/	2D\ 2A\	4ee/	4a\	.
.	.	4ee^^>/	4a\	.
.	4D\ 4A\	4ee^^>/	4a\	.
*v	*v	*	*	*
=240	=240	=240	=240
8qG#X/	.	.	.
2D\ 2A\ 2d\	8ff#/L	4a\	.
.	8gg#X/J	.	.
.	8qbb/	.	.
.	8aa/L	4.a\	.
.	8gg#/	.	.
4D\ 4A\ 4d\	8aa/	.	.
.	8ff#/J	8a\	.
=241	=241	=241	=241
8qG#X/	.	.	.
2D\ 2A\ 2c#\	4ee^^>/	2a\	.
.	4ee^^>/	.	.
4D\ 4A\ 4c#\	4ee^^>/	4a\	.
=242	=242	=242	=242
8qG#X/	.	.	.
2D\ 2A\ 2d\	8dd/L	2a\	.
.	8ff#/J	.	.
.	8qbb/	.	.
.	8aa/L	.	.
.	8gg#X/	.	.
4D^>\ 4A\ 4d\	8aa/	4a\	.
.	8ff#/J	.	.
=243	=243	=243	=243
8qD#X/	.	.	.
2AA\ 2E\ 2A\	4ee/	4e\ 4a\ 4cc#\	.
.	4ee^^>/	4a\	.
4AA^>\ 4E\ 4A\	4ee^^>/	4a\	.
=244	=244	=244	=244
8qD#X/	.	.	.
2AA\ 2E\ 2G#X\	4ee/	(<8b\L	.
.	.	8cc#\J)	.
.	4.ee^>/	(<8dd\L	.
.	.	8cc#\	.
4AA\ 4E\ 4G#\	.	8dd\)	.
.	8ee^>/	8b\J	.
=245	=245	=245	=245
8qD#X/	.	.	.
*ped	*	*	*
2AA\ 2E\ 2A\	4ee/	4cc#\	.
.	4ee^^>/	4ee\	.
*Xped	*	*	*
4E\ 4A\ 4c#\	4ee^^>/	4ee\	.
!!LO:LB:g=original
=246	=246	=246	=246
8qD#X/	.	.	.
*ped	*	*	*
2AA\ 2E\ 2G#X\	4ee/	8b\L	.
.	.	8cc#\J	.
.	4.ee/	(<8dd\L	.
.	.	8cc#\	.
4AA\ 4E\ 4G#\	.	8dd\)	.
*Xped	*	*	*
.	8ee^>/	8b\J	.
=247	=247	=247	=247
8qD#X/	.	.	.
*ped	*	*	*
2AA\ 2E\ 2A\	4ee/	4cc#\	.
.	4ee^^>/	4a\	.
*Xped	*	*	*
4E^^>\ 4A\ 4c#\	4ee^^>/	(<4a\	.
=248	=248	=248	=248
8qD#X/	.	.	.
2AA\ 2E\ 2G#X\	4ee/	8b\L)	.
.	.	8cc#\J	.
.	4.ee/	(<8dd\L	.
.	.	8cc#\	.
4E\ 4B\ 4d\	.	8dd\)	.
.	8ee^>/	8b\J	.
=249	=249	=249	=249
8qD#X/	.	.	.
2AA\ 2E\ 2A\	4ee/	4cc#\	.
.	4ee^^>/	4ee\	.
4E\ 4A\ 4c#\	4ee^^>/	4ee\	.
=250	=250	=250	=250
2AA\ 2D\ 2E\ 2G#X\	4ee/	8b\L	.
.	.	8cc#\J	.
.	4.ee/	8dd\L	.
.	.	8cc#\	.
4AA\ 4D\ 4E\ 4G#\	.	8dd\	.
.	8ee/	8b\J	.
=251	=251	=251	=251
4AA\ 4C#\ 4E\ 4A\	4ee/	4cc#^^<\	.
4rD	4ee/	4a\	.
4AA/ 4E/	4ee/	4a\	.
=252	=252	=252	=252
8qD#X/	.	.	.
2AA/ 2E/	4ee/	4a^<\	.
!	!LO:TX:b:i:t=rall. e poco    a	!	!
.	4ee/	4a^<\	.
4AA/ 4E/	4ee/	4a^<\	.
=253	=253	=253	=253
8qD#X/	.	.	.
2AA/ 2E/	4ee/	4a^<\	.
.	4ee/	4a^<\	.
4AA/ 4E/	4ee/	4a^<\	.
!!LO:LB:g=original
=254	=254	=254	=254
!	!LO:TX:b:i:t=poco	!	!
8qD#X/	.	.	.
2AA/ 2E/	4ee/	4a^<\	.
!	!	!LO:TX:b:i:t=dimi_nuendo:problem=dynamics with extention lines 	!LO:HP:i:t=dimi-nuendo
.	4ee/	4a^<\	>
4AA/ 4E/	4ee/	4a^<\	.
=255	=255	=255	=255
8qD#X/	.	.	.
2AA/ 2E/	4ee/	4a^<\	.
.	4ee/	4a^<\	]
4AA/ 4E/	4ee/	4a^<\	.
=256	=256	=256	=256
8qD#X/	.	.	.
2AA/ 2E/	4ee/	4a^<\	.
.	4ee/	4a^<\	.
4AA/ 4E/	4ee/	4a^<\	.
=257	=257	=257	=257
8qD#X/	.	.	.
2AA/ 2E/	4ee/	4a^<\	.
.	4ee/	4a^<\	.
4AA/ 4E/	4ee/	4a^<\	.
=258	=258	=258	=258
8qD#X/	.	.	.
2AA/ 2E/	4ee/	4a^<\	.
.	4ee/	4a^<\	.
4AA/ 4E/	4ee/	4a^<\	.
*	*v	*v	*
=259||	=259||	=259||
*k[b-]	*k[b-]	*
*^	*^	*
!	!	!LO:TX:a:B:t=Piu lento.	!	!
2.G/ 2.A/ 2.c#X/	2D\	(<8ee/L	2.a\	p
.	.	8ff/J	.	.
.	.	8gg/L	.	.
.	.	16aa/L	.	.
.	.	16gg/JJ	.	.
.	4D^^\	8ff/L	.	.
.	.	8ee/J)	.	.
=260	=260	=260	=260	=260
2.F/ 2.A/ 2.d/	2D\	(8ff/L	2.a\	.
.	.	16qqee/LL	.	.
.	.	16qqff/JJ	.	.
.	.	8ee/J)	.	.
.	.	4.dd/	.	.
.	4D\	.	.	.
.	.	8a/	.	.
!!LO:LB:g=original
=261	=261	=261	=261	=261
2.G/ 2.A/ 2.c#X/	2D\	8ee/L	2.a\	p
.	.	8ff/J	.	.
.	.	8gg/L	.	.
.	.	16aa/L	.	.
.	.	16gg/JJ	.	.
.	4D^^<\	8ff/L	.	.
.	.	8ee/J	.	.
*v	*v	*	*	*
=262	=262	=262	=262
2D\ 2F\ 2A\ 2d\	8dd/L	2a\	.
.	8ff/J	.	.
.	4aa^>/	.	.
4D\ 4F\ 4A\ 4d\	4aa^>/	4a^<\	.
*	*v	*v	*
=263	=263	=263
8qGG#X/	.	.
[<2DD/ 2AA/ 2D/	8a^^>\L 8ee\ 8aa\	.
.	8ff\J	.
.	8gg\L	.
.	16aa\L	.
.	16gg\JJ	.
4DD^>/] 4AA/ 4D/	8ff\L	.
.	8ee\J	.
=264	=264	=264
8qGG#X/	.	.
[<2DD/ 2AA/ 2D/	8a^^>\L 8ff\ 8aa\	.
.	16qqee/LL	.
.	16qqff/JJ	.
.	8ee\J	.
.	4.dd^>\	.
4DD^>/] 4AA/ 4D/	.	.
.	8a/	.
=265	=265	=265
8qGG#X/	.	.
[<2DD/ 2AA/ 2D/	8a^^>\L 8ee\ 8aa\	.
.	8ff\J	.
.	8gg\L	.
.	16aa\L	.
.	16gg\JJ	.
4DD^/] 4AA/ 4D/	8ff\L	.
.	8ee\J	.
=266	=266	=266
8qGG#X/	.	.
[<2DD/ 2AA/ 2D/	8a\L 8dd\ 8aa\	.
.	8ff\J	.
.	4aa\	.
4DD/] 4AA/ 4D/	4a^^<\ 4aa\	.
!!LO:LB:g=original
=267	=267	=267
2D\ 2B-\	4.dd\ 4.ddd\	mf
.	8bb-\L	>
4D\ 4B-\	8aa\	.
.	8gg#X\J	.
=268	=268	=268
*	*^	*
2D\ 2A\	8aa/L	2.a\	.
.	8ff/J	.	.
.	4ee/	.	.
4D\ 4A\	4a^>/ 4dd/	.	]
*	*v	*v	*
=269	=269	=269
2D\ 2B-\	4.dd\ 4.ddd\	.
.	8bb-\L	.
4D\ 4B-\	8aa\	.
.	8gg#X\J	.
=270	=270	=270
*	*^	*
2D\ 2A\	8aa/L	2.a\	.
.	8ff/J	.	.
.	4ee/	.	.
4D\ 4A\	4a^>/ 4dd/	.	.
=271	=271	=271	=271
*^	*	*	*
2.G/ 2.A/ 2.c#X/	2D\	8ee:/L	2.a:\	.
.	.	8ff/J	.	.
.	.	8gg/L	.	.
.	.	16aa/L	.	.
.	.	16gg/JJ	.	.
.	4D\	8ff/L	.	.
.	.	8ee/J	.	.
=272	=272	=272	=272	=272
2.F/ 2.A/ 2.d/	2D\	8ff/L	2.a\	.
.	.	16qqee/LL	.	.
.	.	16qqff/JJ	.	.
.	.	8ee/J	.	.
.	.	4.dd/	.	.
.	4D\	.	.	.
.	.	8a/	.	.
=273	=273	=273	=273	=273
2.G/ 2.A/ 2.c#X/	2D\	8ee/L	2.a\	.
.	.	8ff/J	.	.
.	.	8gg/L	.	.
.	.	16aa/L	.	.
.	.	16gg/JJ	.	.
.	4D\	8ff/L	.	.
.	.	8ee/J	.	.
!!LO:PB:g=original
=274	=274	=274	=274	=274
2F/ 2A/ 2d/	2D\	8dd/L	2a\	.
.	.	8ff/J	.	.
.	.	4aa/	.	.
4DD/ 4FF^^>/ 4AA/ 4D/	4ryy	4aa/	4a^^<\	.
*v	*v	*	*	*
=275	=275	=275	=275
8qGG#X/	.	.	.
2DD/ 2AA/	8ee/L	2.a\	.
.	8ff/J	.	.
.	8gg/L	.	.
.	16aa/L	.	.
.	16gg/JJ	.	.
4DD^>/ 4AA/	8ff/L	.	.
.	8ee/J	.	.
=276	=276	=276	=276
8qGG#X/	.	.	.
2DD/ 2AA/	8ff/L	2.a\	.
.	16qqee/LL	.	.
.	16qqff/JJ	.	.
.	8ee/J	.	.
.	4dd/	.	.
4DD^>/ 4AA/	4a/	.	.
=277	=277	=277	=277
8qGG#X/	.	.	.
2DD/ 2AA/	8ee/L	2.a\	.
.	8ff/J	.	.
.	8gg/L	.	.
.	16aa/L	.	.
.	16gg/JJ	.	.
4DD^>/ 4AA/	8ff/L	.	.
.	8ee/J	.	.
=278	=278	=278	=278
8qGG#X/	.	.	.
2DD/ 2AA/	8dd/L	2a\	.
.	8ff/J	.	.
.	4aa/	.	.
4DD^>/ 4AA/	4aa/	4a^<\	.
*	*v	*v	*
=279	=279	=279
2DD/ 2BB-/ 2D/	4.dd^>\ 4.ddd\	mf
.	8bb-\L	.
4DD/ 4BB-/ 4D/	8aa\	.
.	8gg#X\J	.
=280	=280	=280
2DD/ 2AA/ 2D/	8a\L 8aa\	.
.	16qqff/LL	.
.	16qqgg/JJ	.
.	8gg\J	.
.	4ee\	.
4DD/ 4AA/ 4D/	4dd^<\	.
!!LO:LB:g=original
=281	=281	=281
2DD^>/ 2BB-/ 2D/	4.dd\ 4.ddd\	.
.	8bb-\L	.
4DD/ 4BB-/ 4D/	8aa\	.
.	8gg#X\J	.
=282	=282	=282
*^	*^	*
(>2AA/	2DD\	(>4.aa/	2.a^<\	.
.	.	8bb-/L	.	.
4BB-^>/)	4DD\	8gg#X/	.	.
.	.	8bb-/J)	.	.
=283	=283	=283	=283	=283
(>2AA/	2DD\	(>4.aa/	2.a^\	.
.	.	8bb-/L	.	.
4BB-^>/)	4DD\	8gg#X/	.	.
.	.	8bb-/J)	.	.
=284	=284	=284	=284	=284
(>2AA/	2DD\	(>8aa/L	2.a\	.
.	.	8bb-/J	.	.
.	.	8gg#X/L	.	.
.	.	8aa/J	.	.
4BB-^>/)	4DD\	8ggn/L	.	.
.	.	8aa-X/J	.	.
=285	=285	=285	=285	=285
(>2AA/	2DD\	8ff#X/L	2.a\	.
.	.	8gg/J	.	.
.	.	8ffn/L	.	.
.	.	8gg-X/J	.	.
4BB-^>/)	4DD\	8ee/L	.	.
.	.	8ff/J)	.	.
=286	=286	=286	=286	=286
!	!	!	!LO:TX:b:t=decresc._:problem=dynamics with extention lines 	!LO:HP:b:t=decresc._
.	.	(<16qqeen/LL	.	>
.	.	16qqee-X/JJ)	.	.
(>2AA/	2DD\	2.dd/	2.a^<\	.
4BB-^>/)	4DD\	.	.	.
=287	=287	=287	=287	=287
.	.	(<16qqeen/LL	.	.
.	.	16qqee-X/JJ)	.	.
(>2AA/	2DD\	2.dd/	2.a^<\	.
4BB-^>/)	4DD\	.	.	.
=288	=288	=288	=288	=288
.	.	(<16qqeen/LL	.	.
.	.	16qqee-X/JJ)	.	.
(>2AA/	2DD\	2.dd/	2.a^\	.
4BB-^>/)	4DD\	.	.	]
!!LO:LB:g=original
=289	=289	=289	=289	=289
.	.	(<16qqeen/LL	.	.
.	.	16qqee-X/JJ)	.	.
(>2AA/	2DD\	2.dd/	2.a\	.
4BB-^>/)	4DD\	.	.	.
=290	=290	=290	=290	=290
.	.	(<16qqeen/LL	.	.
.	.	16qqee-X/JJ)	.	.
2AA/	[<2DD\	[>2.dd/	[>2.a\	.
4BB-/	4DD\]	.	.	.
=291	=291	=291	=291	=291
(>2AA/	2DD\	2a/] 2dd/]	[<2.d\	.
4BB-^>/)	4DD\	4r	.	.
*v	*v	*	*	*
=292	=292	=292	=292
!	!LO:TX:b:i:t=Lunga Pausa	!	!
2DD/ 2AA/	2rdd	2d\]	.
8DD/ 8AA/	4rg;>	4ryy	.
8rC;>	.	.	.
*	*v	*v	*
=293	=293	=293
4DD^</ 4D/	4d^>/ 4f#X/ 4a/ 4dd/	ff
8CC#X/L 8C#X/	8d#X/L 8dd#X/	.
8CCn/ 8Cn/	8e/ 8ee/	.
8BBBn/ 8BBn/	8fny/ 8ff/	.
8AAA/J 8AA/	8f#X/J 8ff#X/	.
=294||	=294||	=294||
*k[f#]	*k[f#]	*
!	!LO:TX:a:B:t=Con fuoco.	!
4GGG^^>/ 4GG/	4g^^>\ 4b\ 4dd\ 4gg\	.
4BBB^^>/ 4BB/	4g^^>\ 4b\ 4dd\ 4gg\	.
4GGG^^>/ 4GG/	4g^^>\ 4b\ 4dd\ 4gg\	.
=295	=295	=295
4DD/ 4D/	8.dd\L 8.aa\	.
.	16dd\Jk 16bb\	.
2D^<\ 2F#\ 2c\	4dd\ 4ccc\	.
.	16qqddd/LL	.
.	16qqccc/JJ	.
.	8bb\L	.
.	8aa\J	.
=296	=296	=296
4GGG/ 4GG/	8.dd\L 8.gg\ 8.bb\	.
.	16dd\Jk 16ddd\	.
2D^<\ 2G\ 2B\	4dd\ 4bb\	.
.	16qqccc/LL	.
.	16qqbb/JJ	.
.	8b\L 8aa\	.
.	8gg\J	.
!!LO:LB:g=original
=297	=297	=297
4DD/ 4D/	(>8a\L 8ff#\	.
.	16gg\L	.
.	16ff#\JJ)	.
4D\ 4A\ 4c\	4ee\	.
4D\ 4A\ 4c\	4d^>/ 4a/ 4dd/	.
=298	=298	=298
4GGG^^>/ 4GG/	4g^^>\ 4b\ 4dd\ 4gg\	.
4BBB^^>/ 4BB/	4g^^>\ 4b\ 4dd\ 4gg\	.
4GGG^^>/ 4GG/	4g^^>\ 4b\ 4dd\ 4gg\	.
=299	=299	=299
4DD/ 4D/	8.dd\L 8.aa\	.
.	16dd\Jk 16bb\	.
2D^>\ 2F#\ 2c\	4dd\ 4ccc\	.
.	(<16qqddd/LL	.
.	16qqccc/JJ	.
.	8bb\L)	.
.	8aa\J	.
=300	=300	=300
*	*^	*
4GG\ 4D\ 4B\	8.dd\L 8.bb\	2ryy	.
.	16dd\Jk 16ddd\	.	.
2D^>\ 2A\ 2c\	4dd\ 4ccc\	.	.
.	(<16qqddd/LL	.	.
.	16qqccc/JJ	.	.
.	8ee/L)	4a\	.
.	8ff#/J	.	.
*	*v	*v	*
=301	=301	=301
4GG/ 4G/	(>8.b\L 8.aa\	.
.	16b\Jk) 16gg\	.
8DD/L 8D/	4b^>\ 4gg\	.
8CC/ 8C/	.	.
8BBB/ 8BB/	4rg	.
8AAA/J 8AA/	.	.
=302	=302	=302
4GGG/ 4GG/	4g^^>\ 4b\ 4dd\ 4gg\	ff
4BBB/ 4BB/	4g^^>\ 4b\ 4dd\ 4gg\	.
4GGG/ 4GG/	4g^^>\ 4b\ 4dd\ 4gg\	.
=303	=303	=303
4DD/ 4D/	8.dd\L 8.aa\	.
.	16dd\Jk 16bb\	.
2D^>\ 2F#\ 2A\ 2c\	4dd\ 4ccc\	.
.	(<16qqddd/LL	.
.	16qqccc/JJ	.
.	8bb\L)	.
.	8aa\J	.
!!LO:LB:g=original
=304	=304	=304
4GGG/ 4GG/	8.dd\L 8.bb\	.
.	16ddd\Jk	.
2D^>\ 2G\ 2B\	4dd\ 4bb\	.
.	(<16qqccc/LL	.
.	16qqbb/JJ	.
.	8aa\L)	.
.	8gg\J	.
=305	=305	=305
*	*^	*
4DD/ 4D/	8ff#/L	2a\	.
.	16gg/L	.	.
.	16ff#/JJ	.	.
4D\ 4F#\ 4c\	4ee/	.	.
4D\ 4F#\ 4c\	4dd/	4a\	.
=306	=306	=306	=306
4GGG^^>/ 4GG/	4gg/	4g^^<\ 4b\ 4dd\	.
4BBB^^>/ 4BB/	4gg/	4g^^<\ 4b\ 4dd\	.
4GGG^^>/ 4GG/	4gg/	4g^^<\ 4b\ 4dd\	.
=307	=307	=307	=307
4DD/ 4D/	(>8.dd\L 8.aa\	4ryy	.
.	16bb\Jk)	.	.
2D\ 2F#\ 2A\ 2d\	4ccc/	2dd^\	.
.	16qqddd/LL	.	.
.	16qqccc/JJ	.	.
.	(>8bb/L	.	.
.	8aa/J)	.	.
*	*v	*v	*
=308	=308	=308
4GG\ 4D\ 4B\	8.dd\L 8.bb\	.
.	16ddd\Jk	.
(<2AA^>\ (>2G\	4ee^>\ 4ccc#X\	.
.	(<16qqddd/LL	.
.	16qqccc#/JJ	.
.	8bb'>\L)	.
.	8aa'>\J	.
=309	=309	=309
4D\)) 4F#\	8.dd\L 8.ff#\ 8.ddd\	sf
.	16d\Jk	.
4rC	4d/	p
4rC	4d^>/	.
=310	=310	=310
2.rF	8.d/L	.
.	16d/Jk	.
.	4d/	.
.	4d^>/	.
!!LO:LB:g=original
=311	=311	=311
!	!LO:TX:b:i:t=un poco rall.	!
2.c#X\	8.d/L	sf
.	16d/Jk	.
.	4d/	.
.	4d^>/	.
=312	=312	=312
2.cn\	8.d/L	.
.	16d/Jk	.
.	4d/	.
!	!LO:TX:t=P:problem=fermata poniżej w dolnym systemie	!
.	4d;;/	.
=313	=313	=313
*^	*	*
!	!	!LO:TX:a:B:t=a tempo.	!
4D/ 4B/	2.GG\	8.d/L	pp
.	.	16d/Jk	.
4D/ 4B/	.	4d/	.
4r	.	4d^>/	.
=314	=314	=314	=314
4D/ 4B/	2.GG\	8.d/L	.
.	.	16d/Jk	.
4D/ 4B/	.	4d/	.
4r	.	4d^>/	.
=315	=315	=315	=315
!	!	!LO:TX:b:i:t=con mollo espressione	!LO:DY:rj
4D/ 4B/	2.GG\	8dd^^>\L	p
.	.	16r	.
.	.	16dd\Jk	.
4D/ 4B/	.	(>4.bb^>\	.
4r	.	.	.
.	.	8aa\)	.
=316	=316	=316	=316
4D/ 4B/	2.GG\	8gg\L	.
.	.	16r	.
.	.	16b\Jk	.
4D/ 4B/	.	4.ee^>\	.
4r	.	.	.
.	.	8dd\	.
=317	=317	=317	=317
4D/ 4A/	2.GG\	8cc/L	.
.	.	16r	.
.	.	16f#/Jk	.
4D/ 4A/	.	4.b/	.
4r	.	.	.
.	.	8a/	.
!!LO:PB:g=original
=318	=318	=318	=318
.	.	16qqg/LL	.
.	.	16qqa/JJ	.
4D/ 4B/	2.GG\	8g^^</L	.
.	.	8f#/J	.
4D/ 4B/	.	(<8g'</L	.
.	.	8a'</	.
4r	.	8b'</	.
.	.	8cc'</J)	.
=319	=319	=319	=319
4D/ 4B/	2.GG\	8.dd\L	.
.	.	16dd^^>\Jk	.
4D/ 4B/	.	(>4.bb^<\	.
4r	.	.	.
.	.	8aa\)	.
=320	=320	=320	=320
4D/ 4B/	2.GG\	8.gg\L	.
.	.	16b\Jk	.
4D/ 4B/	.	4.ee\	.
4r	.	.	.
.	.	8dd\	.
*v	*v	*	*
=321	=321	=321
8.AA\L 8.E\ 8.G\	8.g\L 8.cc#X	ff
16AA\Jk 16E\ 16G\	16ee\Jk	.
4AA\ 4E\ 4G\	4cc#\ 4bb	.
(<4AA\ (<4E\ (>4G\	4cc#^\ 4aa	.
=322	=322	=322
8.D\L)) 8.F#)	8.ccn\L 8.ff#	.
16D\Jk 16F#\ 16A\ 16cn\	16a\Jk 16aa	.
4D\ 4F#\ 4A\ 4c\	4ee\ 4eee	.
8D\ 8F#\ 8A\ 8c\	8dd^\ 8ddd	sf
8rD;<	8r;>	.
=323	=323	=323
2.rF	8.d/L	p
.	16d/Jk	.
.	4d/	.
.	4d^>/	.
=324	=324	=324
2.rF	8.d/L	.
.	16d/Jk	.
.	4d/	.
.	4d/	.
!!LO:LB:g=original
=325	=325	=325
*^	*	*
4D/ 4B/	2GG\	8dd\L	.
.	.	16r	.
.	.	(>16dd\Jk	.
4D/ 4B/	.	4.bb^^>\	.
4r	4r	.	.
.	.	8aa\)	.
=326	=326	=326	=326
4D/ 4B/	2GG\	8gg\L	.
.	.	16r	.
.	.	16b\Jk	.
4D/ 4B/	.	(>4.ee\	.
4r	4r	.	.
.	.	8dd\)	.
=327	=327	=327	=327
4D/ 4A/	2GG\	8cc/L	.
.	.	16r	.
.	.	16f#/Jk	.
4D/ 4A/	.	(<4.b/	.
4r	4r	.	.
.	.	8a/)	.
=328	=328	=328	=328
.	.	16qqg/LL	.
.	.	16qqa/JJ	.
4D/ 4B/	2GG\	8g/L	.
.	.	8f#/J	.
4D/ 4B/	.	(<8g'</L	.
.	.	8a'</	.
4r	4r	8b'</	.
.	.	8cc'</J)	.
=329	=329	=329	=329
*ped	*	*	*
4D/ 4B/	2GG\	8dd\L	.
.	.	16r	.
.	.	(>16dd\Jk	.
4D/ 4B/	.	4.bb\)	.
4d^>/	4r	.	.
.	.	8aa\	.
=330	=330	=330	=330
4D/ 4B/	2GG\	8gg\L	.
.	.	16r	.
.	.	16b\Jk	.
4D/ 4B/	.	(>4.ee\	.
4d^>/	4r	.	.
.	.	8dd\)	.
*v	*v	*	*
!!LO:LB:g=original
=331	=331	=331
8.AA\L 8.E\	8.cc#X\L	.
16A\Jk 16c#X\ 16g\	16ee\Jk	.
4A\ 4c#\ 4g\	4b\ 4bb\	.
4A\ 4c#\ 4g\	4a^>\ 4aa\	.
=332	=332	=332
8.d\L 8.f#\	8.ff#\L	.
16D\Jk 16F#\ 16cn\	16a\Jk 16aa\	.
4D\ 4F#\ 4c\	4ee\ 4eee\	.
4D\ 4F#\ 4c\	4dd^>\ 4ddd\	.
=333	=333	=333
4GGG/ 4GG/	4g\ 4b\ 4dd\ 4gg\	ff
4BBB/ 4BB/	4g\ 4b\ 4dd\ 4gg\	.
4GGG/ 4GG/	4g\ 4b\ 4dd\ 4gg\	.
=334	=334	=334
*	*^	*
4DD/ 4D/	8.aa/L	8.dd\L	.
.	16bb/Jk	16dd\Jk	.
2D^>\ 2F#\ 2d\	(<4ccc/	2dd\	.
.	16qqddd/LL	.	.
.	16qqccc/JJ	.	.
.	8bb/L)	.	.
.	8aa/J	.	.
=335	=335	=335	=335
4GGG/ 4GG/	8.bb/L	8.dd\L	.
.	16ddd/Jk	16dd\Jk	.
2D\ 2G\ 2d\	(<4bb/	4dd\	.
.	16qqccc/LL	.	.
.	16qqbb/JJ	.	.
.	8aa/L)	4b\	.
.	8gg/J	.	.
=336	=336	=336	=336
4DD/ 4D/	(>8ff#/L	2a\	.
.	16gg/L	.	.
.	16ff#/JJ)	.	.
4D\ 4F#\ 4c\	4ee/	.	.
4D\ 4F#\ 4c\	4dd/	4a\	.
*	*v	*v	*
=337	=337	=337
4GGG/ 4GG/	4g^^>\ 4b\ 4dd\ 4gg\	.
4BBB/ 4BB/	4g^^>\ 4b\ 4dd\ 4gg\	.
4GGG/ 4GG/	4g^^>\ 4b\ 4dd\ 4gg\	.
!!LO:LB:g=original
=338	=338	=338
*	*^	*
4DD/ 4D/	8.dd\L 8.aa\	4ryy	.
.	16bb\Jk	.	.
2D^>\ 2F#\ 2A\ 2d\	4ccc/	2dd\	.
.	16qqddd/LL	.	.
.	16qqccc/JJ	.	.
.	(>8bb/L	.	.
.	8aa/J)	.	.
=339	=339	=339	=339
4D\ 4G\ 4B\	8.dd\L 8.bb\	2ryy	.
.	16dd\Jk 16ddd\	.	.
4D\ 4A\ 4d\	(<4dd\ 4ccc\	.	.
.	16qqddd/LL	.	.
.	16qqccc/JJ	.	.
4DD/ 4D/	8cc/L) 8ee/	4a\	.
.	8ff#/J	.	.
*	*v	*v	*
=340	=340	=340
4GGG/ 4GG/	8b\L 8dd\ 8aa\	.
.	8gg\J	.
8DD/L 8D/	8dd\L 8gg\ 8ddd\	f
8CC/ 8C/	8cc\ 8ccc\	.
8BBB/ 8BB/	8b\ 8bb\	.
8AAA/J 8AA/	8a\J 8aa\	.
=341	=341	=341
4GGG^^>/ 4GG/	4g^^>\ 4b\ 4dd\ 4gg\	ff
4BBB^^>/ 4BB/	4g^^>\ 4b\ 4dd\ 4gg\	.
4GGG^^>/ 4GG/	4g^^>\ 4b\ 4dd\ 4gg\	.
=342	=342	=342
4DD^^>/ 4D/	8.a\L 8.dd\ 8.aa\	.
.	16bb\Jk	.
2D\ 2F#\ 2d\	(<4cc\ 4ccc\	.
.	16qqddd/LL	.
.	16qqccc/JJ	.
.	8bb\L)	.
.	8aa\J	.
=343	=343	=343
4GGG^^>/ 4GG/	8.b\L 8.bb\	.
.	16dd\Jk 16ddd	.
2D\ 2G\ 2d\	(<4b\ 4bb\	.
.	16qqccc/LL	.
.	16qqbb/JJ	.
.	8aa\L)	.
.	8gg\J	.
!!LO:LB:g=original
=344	=344	=344
*	*^	*
4DD/ 4D/	8ff#/L	2a\	.
.	16gg/L	.	.
.	16ff#/JJ	.	.
4D\ 4F#\ 4c\	4ee/	.	.
4D^<\ 4F#\ 4c\	4dd/	4a^<\	.
*	*v	*v	*
=345	=345	=345
4GGG/ 4GG/	4g^^>\ 4b\ 4dd\ 4gg\	.
4BBB/ 4BB/	4g^^>\ 4b\ 4dd\ 4gg\	.
4GGG/ 4GG/	4g^^>\ 4b\ 4dd\ 4gg\	.
=346	=346	=346
*	*^	*
4DD/ 4D/	8.dd\L 8.aa\	4ryy	.
.	16bb\Jk	.	.
2D^>\ 2F#\ 2A\ 2d\	(<4ccc/	2dd\	.
.	16qqddd/LL	.	.
.	16qqccc/JJ	.	.
.	8bb/L)	.	.
.	8aa/J	.	.
*	*v	*v	*
=347	=347	=347
4D\ 4G\ 4B\	8.dd\L 8.bb\	.
.	16dd\Jk 16ddd\	.
4D\ 4A\ 4c\	(<4dd\ 4ccc\	.
.	16qqddd/LL	.
.	16qqccc/JJ	.
(<4D\ (<4A\ (>4c\	8a\L) 8ee\	.
.	8ff#\J	.
=348	=348	=348
4G\)) 4B\)	8.b\L 8.aa\	.
.	16gg\Jk	.
4GG^^>\ 4BB\ 4D\ 4G\	4gg^^>\ 4bb\ 4ddd\ 4ggg\	.
4r	4r	.
=349||	=349||	=349||
*k[]	*k[]	*
*	*^	*
*ped	*	*	*
8.CC/L 8.GG/ 8.C/	8g\L 8ee\ 8gg\	4ryy	p
.	16r	.	.
16G/Jk	(<16ee\Jk 16gg\	.	.
.	16qqaa/LL	.	.
.	16qqgg/JJ	.	.
2G^\	4dd/) 4ff/	2g^<\	.
*Xped	*	*	*
.	4cc^^>/ 4ee/	.	.
*	*v	*v	*
=350	=350	=350
8.CC/L 8.GG/ 8.BB/	8f\L 8dd\	.
.	16r	.
16G/Jk	16dd\Jk	.
.	16qqee/LL	.
.	16qqdd/JJ	.
2G^>\	4f/ 4b/	.
.	4g^>/	.
!!LO:LB:g=original
=351	=351	=351
4CC/ 4GG/ 4C/	8e/L 8g/	.
.	16r	.
.	16b/Jk	.
4EE/ 4E/	8cc\L	.
.	16r	.
.	16ee\Jk	.
4CC/ 4C/	8gg\L	.
.	16r	.
.	16ccc\Jk	.
=352	=352	=352
4GG:\ 4D:\ 4B:\	(8ff^<\L 8eee\	.
.	8ddd\J)	.
2GG^>\ 2D\ 2B\	(>8dd^<\L 8ff 8ccc	.
.	8bb\J)	.
.	(>8b^<\L 8ff 8aa	.
.	8gg\J)	.
=353	=353	=353
*	*^	*
8.CC/L 8.GG/ 8.C/	8.ee\L 8.gg\	4ryy	.
16G/Jk	(<16ee\Jk 16gg\	.	.
.	16qqff/LL 16qqaa/	.	.
.	16qqee/JJ 16qqgg/	.	.
2G^>\	4dd/) 4ff/	2g^\	.
.	4cc/ 4ee/	.	.
*	*v	*v	*
=354	=354	=354
8.GGG/L 8.GG/	8f\L 8dd\	.
.	16r	.
16F/Jk 16B/	16dd\Jk	.
.	16qqee/LL	.
.	16qqdd/JJ	.
2F^>\ 2G\ 2B\	4f/ 4b/	.
.	4g^>/	.
=355	=355	=355
4GGG/ 4GG/	4b\ 4dd\ 4ff\ 4aa\	f
8GGG#X/L 8GG#X/	2g^>\ 2dd\ 2ff\ 2gg\	.
8AAA/ 8AA/	.	.
8AAA#X/ 8AA#X/	.	.
8BBB/J 8BB/	.	[[
=356	=356	=356
4CC/ 4C/	4c/ 4cc/	.
4CC/ 4C/	4cc\ 4ee\ 4gg\ 4ccc\	sff
4rC	4r	.
!!LO:PB:g=original
=357	=357	=357
*	*^	*
8.CC/L 8.GG/ 8.C/	8g\L 8ee\ 8gg\	4ryy	p
.	16r	.	.
16G/Jk	16ee\Jk 16gg\	.	.
.	16qqaa/LL	.	.
.	16qqgg/JJ	.	.
2G^>\	4dd/ 4ff/	2g^<\	.
.	4cc^^>/ 4ee/	.	.
*	*v	*v	*
=358	=358	=358
8.CC/L 8.GG/ 8.BB/	8f\L 8dd\	.
.	16r	.
16G/Jk	16dd\Jk	.
.	16qqee/LL	.
.	16qqdd/JJ	.
2G^>\	4f/ 4b/	.
.	4g^>/	.
=359	=359	=359
4CC/ 4GG/ 4C/	8e/L 8g/	.
.	16r	.
.	16b/Jk	.
4EE/ 4E/	8cc\L	.
.	16r	.
.	16ee\Jk	.
4CC/ 4C/	8gg\L	.
.	16r	.
.	16ccc\Jk	.
=360	=360	=360
4GG:\ 4D:\ 4B:\	(>8.ff^<\L 8.eee	.
.	16ddd\Jk)	.
2GG^\ 2D\ 2B\	(>8dd^<\L 8ff 8ccc	.
.	8bb\J)	.
.	(>8b^<\L 8ff 8aa	.
.	8gg\J)	.
=361	=361	=361
*	*^	*
8.CC/L 8.GG/ 8.C/	8.ee\L 8.gg\	4ryy	.
16G/Jk	16ee\Jk 16gg\	.	.
.	(<16qqff/LL 16qqaa	.	.
.	16qqee/JJ) 16qqgg	.	.
2G^>\	4dd/ 4ff/	2g^\	.
.	4cc/ 4ee/	.	.
*	*v	*v	*
!!LO:LB:g=original
=362	=362	=362
8.GGG\L 8.GG\	8f\L 8dd\	.
.	16r	.
16F\Jk 16B\	16dd\Jk	.
.	16qqee/LL	.
.	16qqdd/JJ	.
2F\ 2B\	4f/ 4b/	.
.	4g^>/	.
=363	=363	=363
4GGG/ 4GG/	4b\ 4dd\ 4ff\ 4aa\	.
8GGG#X/L 8GG#X/	2g^>\ 2dd\ 2ff\ 2gg\	.
8AAA/ 8AA/	.	.
8AAA#X/ 8AA#X/	.	.
8BBB/J 8BB/	.	.
=364	=364	=364
4CC/ 4C/	4c/ 4cc/	.
4CC^^>/ 4C/	4cc\ 4ee\ 4gg\ 4ccc\	ff
4rC	4r	.
=365||	=365||	=365||
*k[f#]	*k[f#]	*
!	!LO:TX:a:B:t=Con fuoco.	!
4GGG^^>/ 4GG/	4g\ 4b\ 4dd\ 4gg\	.
4BBB^^>/ 4BB/	4g\ 4b\ 4dd\ 4gg\	.
4GGG^^>/ 4GG/	4g\ 4b\ 4dd\ 4gg\	.
=366	=366	=366
*	*^	*
4DD/ 4D/	8.a\L 8.dd\ 8.aa\	4ryy	.
.	16bb\Jk	.	.
2D^>\ 2F#\ 2A\ 2d\	4ccc/	2dd\	.
.	(<16qqddd/LL	.	.
.	16qqccc/JJ)	.	.
.	8bb/L	.	.
.	8aa/J	.	.
*	*v	*v	*
=367	=367	=367
4GGG/ 4GG/	8.dd\L 8.bb\	.
.	16dd\Jk 16ddd\	.
2D^>\ 2G\ 2B\ 2d\	4dd\ 4bb\	.
.	(<16qqccc/LL	.
.	16qqbb/JJ)	.
.	8b\L 8aa\	.
.	8gg\J	.
!!LO:LB:g=original
=368	=368	=368
*	*^	*
4DD/ 4D/	8ff#/L	2a\	.
.	(<16gg/L	.	.
.	16ff#/JJ)	.	.
4D\ 4F#\ 4c\	4ee/	.	.
4D^>\ 4F#\ 4c\	4dd^>/	4a\	.
*	*v	*v	*
=369	=369	=369
4GGG/ 4GG/	4g\ 4b\ 4dd\ 4gg\	.
4BBB/ 4BB/	4g\ 4b\ 4dd\ 4gg\	.
4GGG/ 4GG/	4g\ 4b\ 4dd\ 4gg\	.
=370	=370	=370
*	*^	*
4DD/ 4D/	8.a\L 8.dd\ 8.aa\	4ryy	.
.	16bb\Jk	.	.
2D^>\ 2F#\ 2A\ 2d\	4ccc/	2dd\	.
.	(<16qqddd/LL	.	.
.	16qqccc/JJ)	.	.
.	8bb/L	.	.
.	8aa/J	.	.
*	*v	*v	*
=371	=371	=371
4D\ 4G\ 4B\ 4d\	8.dd\L 8.bb\	.
.	16dd\Jk 16ddd\	.
.	(<16qqccc/LL	.
.	16qqddd/JJ)	.
4D\ 4F#\ 4A\	4dd\ 4ccc\	.
4DD/ 4D/	(>8a\L 8cc\ 8ee\	.
.	8ff#\J)	.
=372	=372	=372
4GG/ 4G/	8.b\L 8.dd\ 8.aa\	.
.	16b\Jk 16dd\ 16gg\	.
8DD^^</L 8D/	4b\ 4dd\ 4gg\	ff
8CC^^</ 8C/	.	.
8BBB^^</ 8BB/	4rb	.
8AAA^^</J 8AA/	.	.
=373	=373	=373
4GGG^^>/ 4GG/	4g\ 4b\ 4dd\ 4gg\	.
4BBB^^>/ 4BB/	4g\ 4b\ 4dd\ 4gg\	.
4GGG^^>/ 4GG/	4g\ 4b\ 4dd\ 4gg\	.
!!LO:LB:g=original
=374	=374	=374
*	*^	*
4DD/ 4D/	8.a\L 8.dd\ 8.aa\	4ryy	.
.	16bb\Jk	.	.
2D^>\ 2F#\ 2A\ 2d\	4ccc/	2dd\	.
.	(<16qqddd/LL	.	.
.	16qqccc/JJ)	.	.
.	8bb/L	.	.
.	8aa/J	.	.
*	*v	*v	*
=375	=375	=375
4GGG/ 4GG/	8.dd\L 8.gg\ 8.bb\	.
.	16dd\Jk 16ddd\	.
2D^>\ 2G\ 2B\ 2d\	(<4dd\ 4bb\	.
.	16qqccc/LL	.
.	16qqbb/JJ	.
.	8b\L) 8aa\	.
.	8gg\J	.
=376	=376	=376
*	*^	*
4DD/ 4D/	8ff#/L	2a\	.
.	(<16gg/L	.	.
.	16ff#/JJ)	.	.
4D\ 4F#\ 4c\	4ee/	.	.
4D^<\ 4F#\ 4c\	4dd/	4a^<\	.
*	*v	*v	*
=377	=377	=377
4GGG^^>/ 4GG/	4g\ 4b\ 4dd\ 4gg\	.
4BBB^^>/ 4BB/	4g\ 4b\ 4dd\ 4gg\	.
4GGG^^>/ 4GG/	4g\ 4b\ 4dd\ 4gg\	.
=378	=378	=378
*	*^	*
4DD/ 4D/	8.dd\L 8.aa\	4ryy	.
.	16bb\Jk	.	.
2D^>\ 2F#\ 2A\ 2d\	4ccc/	2dd\	.
.	(<16qqddd/LL	.	.
.	16qqccc/JJ)	.	.
.	8bb/L	.	.
.	8aa/J	.	.
*	*v	*v	*
=379	=379	=379
4GG/ 4G/	8.dd\L 8.gg\ 8.bb\	.
.	16ddd\Jk	.
4AA/ 4E/ 4G/	4ee\ 4gg\ 4ccc#X\	.
.	(<16qqddd/LL	.
.	16qqccc#/JJ)	.
4AAA/ 4AA/	8.bb\L	.
.	16aa\Jk	.
!!LO:LB:g=original
=380	=380	=380
8.DD\L 8.D\	4dd\ 4ff#\ 4aa\ 4ddd\	sf
16d\Jk	.	.
4d\	4rb	p
4d^>\	4rb	.
=381	=381	=381
2.rD	8.d/L	.
.	16d/Jk	.
.	4d/	.
.	4d^>/	.
=382	=382	=382
2.c#X\	8.d/L	.
.	16d/Jk	.
.	4d/	.
.	4d^>/	.
=383	=383	=383
2.cn\	8.d/L	.
.	16d/Jk	.
.	4d/	.
!	!LO:TX:b:i:t=un poco rall.	!
.	4d^>/	.
=384	=384	=384
*^	*	*
4D/ 4B/	2.GG\	8.d/L	.
.	.	16d/Jk	.
4D/ 4B/	.	4d/	.
4r	.	4d^>/	.
=385	=385	=385	=385
4D/ 4B/	2.GG\	8.d/L	.
.	.	16d/Jk	.
4D/ 4B/	.	4d/	.
4r	.	4d^>/	.
=386	=386	=386	=386
!	!	!LO:TX:b:t=con espressione	!
!	!	!LO:TX:a:t=Solo	!
4D/ 4B/	2GG\	8dd\L	.
.	.	16r	.
.	.	16dd\Jk	.
4D/ 4B/	.	4.bb\	.
4d^>/	4r	.	.
.	.	8aa\	.
=387	=387	=387	=387
4D/ 4B/	2GG\	8gg\L	.
.	.	16r	.
.	.	16b\Jk	.
4D/ 4B/	.	(>4.ee\	.
4d^>/	4r	.	.
.	.	8dd\)	.
!!LO:PB:g=original
=388	=388	=388	=388
4D/ 4A/	2.GG\	8a/L	.
.	.	16r	.
.	.	16f#/Jk	.
4D/ 4F#/ 4c/	.	(<4.b/	.
4D/ 4F#/ 4c/	.	.	.
.	.	8a/)	.
=389	=389	=389	=389
.	.	(<16qqg/LL	.
.	.	16qqa/JJ	.
4D/ 4B/	2.GG\	8g/L)	.
.	.	8f#/J	.
4D/ 4B/	.	8g'</L	.
.	.	8a'</	.
4d/	.	8b'</	.
.	.	8cc'</J	.
=390	=390	=390	=390
4D/ 4B/	2.GG\	8dd\L	.
.	.	16r	.
.	.	(>16dd\Jk	.
4D/ 4B/	.	4.bb\	.
4d/	.	.	.
.	.	8aa\)	.
=391	=391	=391	=391
4D/ 4B/	2.GG\	8gg\L	.
.	.	16r	.
.	.	16b\Jk	.
4D/ 4B/	.	4.ee\	.
4d/	.	.	.
.	.	8dd\	.
*v	*v	*	*
=392	=392	=392
8.AAA\L 8.AA\	8.g\L 8.cc#X\	.
16E\Jk 16G\ 16A\ 16c#X\	16ee\Jk	.
4E\ 4G\ 4A\ 4c#\	4b\ 4bb\	.
4E^>\ 4G\ 4A\ 4c#\	4a^>\ 4aa\	.
=393	=393	=393
8.D\L 8.F#\ 8.A\ 8.d\	8.ff#\L	.
16D\Jk 16F#\ 16A\ 16d\	16a\Jk 16aa\	.
4D\ 4F#\ 4A\ 4d\	4ee\ 4eee\	.
4D^>\ 4F#\ 4A\ 4d\	4dd^>\ 4ddd\	.
!!LO:LB:g=original
=394	=394	=394
2.rF	8.d/L	p >
.	16d/Jk	.
.	4d/	.
.	4d^>/	.
=395	=395	=395
2.rF	8.d/L	.
.	16d/Jk	.
.	4d/	.
.	4d^>/	]]
=396||	=396||	=396||
*k[b-e-]	*k[b-e-]	*
*^	*	*
4F/ 4B-/	2.BB-\	8ff^^>\L	pp
.	.	16r	.
.	.	(>16ff\Jk	.
4F/ 4B-/	.	4.ddd\	.
4d/	.	.	.
.	.	8aa\)	.
=397	=397	=397	=397
4F/ 4B-/	2.BB-\	8dd\L 8bb-\	.
.	.	16r	.
.	.	16dd\Jk	.
4F/ 4B-/	.	4.gg\	.
4d/	.	.	.
.	.	8ff\	.
=398	=398	=398	=398
4F/ 4c/	2.BB-\	8.ee-\L	.
.	.	16a\Jk	.
4F/ 4c/	.	4.dd\	.
4f^>/	.	.	.
.	.	8cc\	.
=399	=399	=399	=399
.	.	16qqb-/LL	.
.	.	16qqcc/JJ	.
4F/ 4B-/	2.BB-\	8b-\L	.
.	.	8a\	.
4F/ 4B-/	.	(>8b-'>\	.
.	.	8cc'>\	.
4f^>/	.	8dd'>\	.
.	.	8ee-'>\J)	.
=400	=400	=400	=400
4F/ 4B-/	2.BB-\	8ff\L	.
.	.	16r	.
.	.	16ff\Jk	.
4F/ 4B-/	.	4.ddd\	.
4f^>/	.	.	.
.	.	8ff\	.
*v	*v	*	*
!!LO:LB:g=original
=401	=401	=401
*	*^	*
4BB-\ 4B-\	8.dd\L 8.ff#X\	4ryy	.
.	16dd\Jk 16ff#\	.	.
16BBB-/LL	(>4.ddd/	4dd\ 4ff#\	<
16BB-/	.	.	.
16BBB-/	.	.	.
16BB-/	.	.	.
16BBB-/	.	4dd\	.
16BB-/	.	.	.
16BBB-/	8ff#/)	.	.
16BB-/JJ	.	.	.
=402	=402	=402	=402
4BB-\ 4B-\	8.dd\L 8.gg\	4ryy	<
.	16dd\Jk 16gg\	.	.
16BBB-/LL	(>4.ddd/	4dd\ 4gg\	.
16BB-/	.	.	.
16BBB-/	.	.	.
16BB-/	.	.	.
16BBB-/	.	4dd\	.
16BB-/	.	.	.
16BBB-/	8gg/)	.	.
16BB-/JJ	.	.	[
=403	=403	=403	=403
4BB-\ 4B-\	8.dd\L 8.gg#X\	4ryy	.
.	16dd\Jk 16gg#\	.	.
16BBB-/LL	(>4.ddd/	4dd\ 4gg#\	.
16BB-/	.	.	.
16BBB-/	.	.	.
16BB-/	.	.	.
16BBB-/	.	4dd\	.
16BB-/	.	.	.
16BBB-/	8gg#/)	.	.
16BB-/JJ	.	.	.
*	*v	*v	*
=404||	=404||	=404||
*k[f#c#]	*k[f#c#]	*
4AAA/ 4AA/	8.a\L 8.aa\	ff
.	16a\Jk 16aa\	.
2F#^>\ 2A\ 2d\	4.ff#^>\ 4.fff#\	.
.	8ee\ 8eee\	.
=405	=405	=405
4AAA/ 4AA/	8.dd\L 8.ddd\	.
.	16f#\Jk 16ff#\	.
2F#^>\ 2A\ 2d\	4.b^>\ 4.bb\	.
.	8a\ 8aa\	.
=406	=406	=406
4AAA/ 4AA/	8.g\L 8.gg\	.
.	16cc#\Jk	.
4G\ 4A\ 4c#\	4.ff#^>\	.
4G\ 4A\ 4c#\	.	.
.	8ee\	.
=407	=407	=407
.	16qqdd/LL	.
.	16qqee/JJ	.
4AAA/ 4AA/	8dd\L	.
.	8cc#\	.
4F#\ 4A\ 4d\	8dd'>\	.
.	8ee'>\	.
4F#\ 4A\ 4d\	8ff#'>\	.
.	8gg'>\J	.
!!LO:LB:g=original
=408	=408	=408
4AAA/ 4AA/	8.aa\L	.
.	16a\Jk 16aa\	.
2F#^>\ 2A\ 2d\	4.ff#^<\ 4.fff#\	.
.	8ee\ 8eee\	.
=409	=409	=409
4AAA/ 4AA/	8.dd\L 8.ddd\	.
.	16f#\Jk 16ff#\	.
2F#^>\ 2A\ 2d\	4.b^>\ 4.bb\	.
.	8a\ 8aa\	.
=410	=410	=410
4AAA/ 4AA/	8.g#X\L 8.gg#X\	.
.	16b\Jk 16bb\	.
4E\ 4G#X\ 4d\	4ff#\ 4fff#\	.
4E\ 4G#\ 4d\	4ee\ 4eee\	.
=411	=411	=411
4AAA/ 4AA/	8.cc#\L 8.ccc#\	.
.	16ee\Jk 16eee\	.
8E/L 8Gn/ 8c#/	4bb\ 4bbb\	.
8BBB/ 8BB/	.	.
8CCn/ 8Cn/	4aa\ 4aaa\	.
8CC#X/J 8C#X/	.	.
=412	=412	=412
!	!LO:TX:a:B:t=Più Presto.	!
4DD/ 4D/	4d/ 4f#/ 4a/	.
2D^>\ 2F#\ 2A\	2d^>/ 2f#/ 2dd/	.
=413	=413	=413
4DD/ 4D/	4d/ 4f#/ 4a/	.
2D^>\ 2F#\ 2A\ 2d\	2d^>\ 2f#\ 2dd\ 2ff#\	.
=414	=414	=414
!	!LO:TUP:a:problem=klamra łukowa	!
4DD/ 4D/	12a\L	.
.	12dd\	.
.	12ff#\J	.
4D\ 4F#\ 4A\ 4d\	4aa\	.
4D\ 4F#\ 4A\ 4d\	4b\ 4bb\	.
=415	=415	=415
4DD/ 4D/	8a\L 8aa\	.
.	16r	.
.	16ff#\Jk	.
2D^>\ 2F#\ 2A\ 2d\	2dd^>\	.
!!LO:LB:g=original
=416	=416	=416
4DD/ 4D/	4f#/ 4a/	.
2D^>\ 2F#\ 2A\ 2d\	2f#^>/ 2dd	.
=417	=417	=417
4DD/ 4D/	4f#/ 4a/	.
2D^>\ 2F#\ 2A\ 2d\	2f#^>\ 2a\ 2ff#\	.
=418	=418	=418
!	!LO:TUP:a:problem=klamra łukowa	!
4DD/ 4D/	12a\L	.
.	12dd\	.
.	12ff#\J	.
4D\ 4F#\ 4A\ 4d\	4aa\	.
4D\ 4F#\ 4A\ 4d\	4b\ 4bb\	.
=419	=419	=419
4DD/ 4D/	8a\L 8aa\	.
.	16r	.
.	16ff#\Jk	.
2D\ 2F#\ 2A\ 2d\	4dd\ 4ddd\	.
.	4ddd^<\	.
=420	=420	=420
.	16qqccc#/LL	.
.	16qqddd/JJ	.
4AA/	8ccc#\L	p
.	16r	.
.	16ee\Jk	.
2A\ 2c#\ 2g\	2bb\	.
=421	=421	=421
4DD/ 4D/	8aa\L	.
.	16rdd	.
.	16ff#\Jk	.
2A\ 2d\ 2f#\	2dd^>\	.
=422	=422	=422
4AA/	8ee\L	.
.	16r	.
.	16b\Jk	.
4G\ 4A\ 4e\	(>2cc#\	.
4G\ 4A\ 4e\	.	.
=423	=423	=423
4D\ 4F#\ 4A\ 4d\	4f#/) 4a/ 4dd/	.
4DD/ 4D/	4dd\ 4ff#\ 4aa\ 4ddd\	sf
4r	4r	.
!!LO:PB:g=original
=424	=424	=424
4EE/ 4E/	4e/	ff
!	!LO:TX:b:t=con energia	!
4E\ 4G#X\ 4d\	4e/ 4g#X/ 4b/	.
4E\ 4G#\ 4d\	4e/ 4g#/ 4dd/	.
=425	=425	=425
.	16qqcc#/LL	.
.	16qqdd/JJ	.
4AA/	8.cc#\L	.
.	16b\Jk	.
4E\ 4A\ 4c#\	4a/	.
4E^>\ 4A\ 4c#\	4e^>/ 4a/ 4ee/	.
=426	=426	=426
4E\ 4G#X\ 4d\	4.e/	.
2E^>\ 2G#\ 2d\	.	.
.	8g#X/L	.
.	8b/	.
.	8dd/J	.
=427	=427	=427
.	16qqcc#/LL	.
.	16qqdd/JJ	.
4AA/	8.cc#\L	.
.	16b\Jk	.
2E^<\ 2A\ 2c#\	(>4a/	.
.	8a\) 8aa\	sf
.	8r	.
=428	=428	=428
4EE/ 4E/	4e^>/	.
4E\ 4G#X\ 4d\	4e^>/ 4g#X/ 4b/	.
4E\ 4B\ 4d\	4e^>/ 4g#/ 4dd/	.
=429	=429	=429
.	16qqcc#/LL	.
.	16qqdd/JJ	.
4AA/	8cc#\L	.
.	16r	.
.	16b\Jk	.
4E\ 4A\ 4c#\	(4a/	.
4E\ 4A\ 4c#\	4a^<\) 4ee\	.
=430	=430	=430
4E\ 4G#X\ 4d\	8e/L	.
.	8g#X/J	.
2E^>\ 2G#\ 2d\	8b\L	.
.	8dd\	.
.	8ff#\	.
.	8ee\J	.
!!LO:LB:g=original
=431	=431	=431
.	16qqdd/LL	.
.	16qqee/JJ	.
4AA:\ 4E:\ 4c#:\	8dd\L	.
.	(>8cc#'>\	.
2E\ 2A\ 2c#\	8b'>\	.
.	8a'>\	.
.	8g#X'>\	.
.	8f#'>\J)	.
=432	=432	=432
4EE/ 4BB/ 4E/	4e/	ff
4EE/ 4BB/ 4E/	4e/ 4b/	.
4EE/ 4BB/ 4E/	4e^</ 4dd	.
=433	=433	=433
4AAA/ 4EE/ 4AA/	8.e/L 8.cc#/	.
.	16b/Jk	.
4AAA/ 4EE/ 4AA/	4a/	.
4AAA/ 4EE/ 4AA/	4e^</ 4ee/	.
=434	=434	=434
4EE/ 4BB/ 4E/	(<4.e/	.
2EE^>/ 2BB/ 2E/	.	.
.	8g#X/L)	.
.	8b/	.
.	8dd/J	.
=435	=435	=435
.	16qqcc#/LL	.
.	16qqdd/JJ	.
4AAA/ 4EE/ 4AA/	8.cc#\L	.
.	16b\Jk	.
2AAA^>/ 2EE/ 2AA/	(>4a/	.
.	8a\) 8aa\	sf
.	8r	.
=436	=436	=436
4EE/ 4E/	4e^>/	.
4E\ 4G#X\ 4d\	4e^>/ 4g#X/ 4b/	.
4E^>\ 4G#\ 4d\	4e^>/ 4g#/ 4dd/	.
=437	=437	=437
.	16qqcc#/LL	.
.	16qqdd/JJ	.
4AA/	8cc#\L	.
.	16r	.
.	16b\Jk	.
4E\ 4A\ 4c#\	4a/	.
4E\ 4A\ 4c#\	4a^>\ 4ee\	.
!!LO:LB:g=original
=438	=438	=438
4EE/ 4E/	8e/L	.
.	8g#X/J	.
2E^<\ 2G#X\ 2d\	8b^>\L	.
.	8dd^>\	.
.	8ff#^>\	.
.	8ee^>\J	.
=439	=439	=439
4A\ 4c#\	4a/	.
8AAA#X/L 8AA#X/	4a\ 4cc#\ 4ee\ 4aa\	sf
8BBB/ 8BB/	.	.
8CCn/ 8Cn/	4A/	.
8CC#X/J 8C#X/	.	.
=440	=440	=440
4DD/ 4AA/ 4D/	4d/ 4f#/ 4a/	ff
2DD/ 2AA/ 2D/	2d^>/ 2f#/ 2dd/	.
=441	=441	=441
4DD/ 4AA/ 4D/	4d/ 4f#/ 4a/	.
2DD/ 2AA/ 2D/	2f#^>\ 2a\ 2ff#\	.
=442	=442	=442
!	!LO:TUP:a:problem=klamra łukowa	!
4DD/ 4AA/ 4D/	12a\L	<
.	12dd\	.
.	12ff#\J	.
4DD/ 4AA/ 4D/	4a\ 4aa\	.
4DD/ 4AA/ 4D/	4b\ 4bb\	[[
=443	=443	=443
4DD/ 4AA/ 4D/	8.a\L 8.aa\	.
.	16ff#\Jk	.
2DD^</ 2AA/ 2D/	2d^>/ 2f#/ 2dd/	.
=444	=444	=444
4DD/ 4AA/ 4D/	4d/ 4f#/ 4a/	.
2DD^</ 2AA/ 2D/	2d^>/ 2f#/ 2dd/	.
!!LO:LB:g=original
=445	=445	=445
4DD/ 4AA/ 4D/	4d/ 4f#/ 4a/	.
2DD/ 2AA/ 2D/	2f#^>\ 2a\ 2ff#\	.
=446	=446	=446
!	!LO:TUP:a:problem=klamra łukowa	!
4DD/ 4AA/ 4D/	12a\L	.
.	12dd\	.
.	12ff#\J	.
4DD/ 4AA/ 4D/	4a\ 4aa\	.
4DD/ 4AA/ 4D/	4b\ 4bb\	.
=447	=447	=447
4AA/	8ccc#\L	.
.	16r	.
.	16ee\Jk	.
(<2A\ (>2c#\ (>2g\	(>2bb^>\	.
=448	=448	=448
4DD/) 4D))	8aa\L)	.
.	16r	.
.	16ff#\Jk	.
2F#^<\ 2d\ 2f#\	2dd^>\	.
=449	=449	=449
4AA/	8ee\L	.
.	16r	.
.	16b\Jk	.
2G^<\ 2A\ 2e\	(>2cc#^>\	.
=450	=450	=450
4DD/ 4D/	8dd\L)	.
.	16r	.
.	16ff#\Jk	.
4F#\ 4A\ 4d\	2a^>\ 2aa\	.
4F#\ 4A\ 4d\	.	.
=451	=451	=451
.	16qqccc#/LL	.
.	16qqddd/JJ	.
4AA/	8ccc#\L	.
.	16r	.
.	16ee\Jk	.
*clefG2	*	*
2A/ 2c#/ 2g/	2bb\	.
*clefF4	*	*
!!LO:LB:g=original
=452	=452	=452
4DD/ 4D/	8aa\L	.
.	16rdd	.
.	16ff#\Jk	.
*clefG2	*	*
2A/ 2d/ 2f#/	2dd^>\	.
*clefF4	*	*
=453	=453	=453
*	*^	*
*tremolo	*	*	*
16AAA/LL	8.ee/L	2.a\	pp
16AA/	.	.	.
16AAA/	.	.	.
16AA/	16b/Jk	.	.
!	!LO:TX:b:i:t=poco  a   poco stringendo	!	!
16AAA/	(>4.g^>/ 4.a/ 4.cc#/	.	.
16AA/	.	.	.
16AAA/	.	.	.
16AA/	.	.	.
16AAA/	.	.	.
16AA/	.	.	.
16AAA/	8a/)	.	.
16AA/JJ	.	.	.
=454	=454	=454	=454
16AAA/LL	8.ff#/L	2.a\	.
16AA/	.	.	.
16AAA/	.	.	.
16AA/	16cc#/Jk	.	.
16AAA/	(>4.f#^>/ 4.a/ 4.dd/	.	.
16AA/	.	.	.
16AAA/	.	.	.
16AA/	.	.	.
16AAA/	.	.	.
16AA/	.	.	.
16AAA/	8a/)	.	.
16AA/JJ	.	.	.
=455	=455	=455	=455
16AAA/LL	8.gg/L	4r	.
16AA/	.	.	.
16AAA/	.	.	.
16AA/	16dd#X/Jk	.	.
16AAA/	(>4.ee/	2g^<\ 2b\	.
16AA/	.	.	.
16AAA/	.	.	.
16AA/	.	.	.
16AAA/	.	.	.
16AA/	.	.	.
16AAA/	8a/)	.	.
16AA/JJ	.	.	.
=456	=456	=456	=456
16AAA/LL	8.aa/L	4r	.
16AA/	.	.	.
16AAA/	.	.	.
16AA/	16ee#X/Jk	.	.
!	!	!LO:TX:b:t=cre_scen_do:problem=dynamics with extention lines 	!LO:HP:b:i:t=cre-scen-do:ext=ud
16AAA/	(>4.ff#/	2a^<\ 2cc#\	<
16AA/	.	.	.
16AAA/	.	.	.
16AA/	.	.	.
16AAA/	.	.	.
16AA/	.	.	.
16AAA/	8a/)	.	.
16AA/JJ	.	.	.
=457	=457	=457	=457
16AAA/LL	8.bb/L	4r	.
16AA/	.	.	.
16AAA/	.	.	.
16AA/	16ff#/Jk	.	.
16AAA/	(>4.gg/	2b^<\ 2dd\	.
16AA/	.	.	.
16AAA/	.	.	.
16AA/	.	.	.
16AAA/	.	.	.
16AA/	.	.	.
16AAA/	8a/)	.	.
16AA/JJ	.	.	.
=458	=458	=458	=458
16AAA/LL	8.ccc#/L	4r	.
16AA/	.	.	.
16AAA/	.	.	.
16AA/	16gg#X/Jk	.	.
16AAA/	(>4.aa/	2cc#^<\ 2ee\	[
16AA/	.	.	.
16AAA/	.	.	.
16AA/	.	.	.
16AAA/	.	.	.
16AA/	.	.	.
16AAA/	8a/)	.	.
16AA/JJ	.	.	.
=459	=459	=459	=459
16AAA/LL	8.ddd/L	4r	.
16AA/	.	.	.
16AAA/	.	.	.
16AA/	16aa#X/Jk	.	.
16AAA/	(>4.bb/	2dd^<\ 2ff#\	.
16AA/	.	.	.
16AAA/	.	.	.
16AA/	.	.	.
16AAA/	.	.	.
16AA/	.	.	.
16AAA/	8a/)	.	.
16AA/JJ	.	.	.
!!LO:PB:g=original
=460	=460	=460	=460
16AAA/LL	8.eee/L	4r	.
16AA/	.	.	.
16AAA/	.	.	.
16AA/	16bb#X/Jk	.	.
16AAA/	(>4.ccc#/	2ee^<\ 2gg\	.
16AA/	.	.	.
16AAA/	.	.	.
16AA/	.	.	.
16AAA/	.	.	.
16AA/	.	.	.
16AAA/	8a/)	.	.
16AA/JJ	.	.	.
*Xtremolo	*	*	*
*	*v	*v	*
=461||	=461||	=461||
!	!LO:TX:a:B:t=Presto.	!LO:DY:rj
2.D^>\ 2.F#\ 2.A\ 2.d\	(>8a\L 8ff#\	fff
.	8gg#X\J)	.
!	!LO:TX:b:i:t=con fuoco	!
.	8qbb/	.
.	(8a\L 8aa\	.
.	8gg#\)	.
.	8aa\	.
.	8ff#\J	.
=462	=462	=462
2D^>\ 2G\ 2A\ 2c#X\	4g^>\ 4a\ 4ee\	.
.	4g^>\ 4a\ 4ee\	.
4D\ 4G\ 4A\ 4c#\	4g^>\ 4a\ 4ee\	.
=463	=463	=463
2.D^>\ 2.F#\ 2.A\ 2.d\	8dd\L	.
.	8a\J 8ff#\	.
.	8qbb/	.
.	8a\L 8aa\	.
.	8gg#X\	.
.	8a\ 8aa\	.
.	8ff#\J	.
=464	=464	=464
2D^>\ 2G\ 2A\ 2c#\	4g^>\ 4a\ 4ee\	.
.	4g^>\ 4a\ 4ee\	.
4D\ 4G\ 4A\ 4c#\	4g^>\ 4a\ 4ee\	.
=465	=465	=465
2.D^>\ 2.F#\ 2.A\ 2.d\	8a\L 8ff#\	.
.	8gg#X\J	.
.	8qbb/	.
.	(>8a\L 8aa\	.
.	8gg#\	.
.	8aa\	.
.	8ff#'>\J)	.
=466	=466	=466
2D^>\ 2G\ 2A\ 2c#X\	4g^>\ 4a\ 4ee\	.
.	4g^>\ 4a\ 4ee\	.
4D\ 4G\ 4A\ 4c#\	4g^>\ 4a\ 4ee\	.
!!LO:LB:g=original
=467	=467	=467
2.D^>\ 2.F#\ 2.A\ 2.d\	8a\L 8dd\	.
.	8ff#\J	.
.	8qbb/	.
.	8a\L 8aa\	.
.	8gg#X\	.
.	8aa\	.
.	8ff#\J	.
=468	=468	=468
2D\ 2G\ 2A\ 2c#\	4g\ 4a\ 4ee\	f
.	4g\ 4a\ 4ee\	f
4D\ 4G\ 4A\ 4c#\	4g\ 4a\ 4ee\	f
=469	=469	=469
*	*^	*
2.D#X\ 2.A\ 2.cn\	8ff#/L	2.a\	p
.	8gg#X/J	.	.
.	8qbb/	.	.
.	8aa/L	.	.
.	8gg#/	.	.
.	8aa/	.	.
.	8ff#/J	.	.
=470	=470	=470	=470
!	!	!LO:TX:b:t=de_cre_scen_do:problem=dynamics with extention lines 	!LO:HP:b:i:t=de-cre-scen-do:ext=ud
2E\ 2A\ 2c#X\	4ee^^>/	4a\	>
.	4ee^^>/	4a\	.
4E\ 4A\ 4c#\	4ee^^>/	4a\	.
=471	=471	=471	=471
2F#\ 2A\ 2d\	8dd/L	2.a\	.
.	8ff#/J	.	.
.	8qbb/	.	.
.	8aa/L	.	.
.	8gg#X/	.	.
4D\ 4F#\ 4A\ 4d\	8aa/	.	.
.	8ff#/J	.	.
=472	=472	=472	=472
2D\ 2G\ 2A\ 2c#\	4ee^>/	2a\	.
.	4ee^>/	.	.
4D\ 4G\ 4A\ 4c#\	4ee^>/	4a\	.
=473	=473	=473	=473
2.D#X\ 2.A\ 2.cn\	8ff#/L	2.a\	.
.	8gg#X/J	.	.
.	8qbb/	.	.
.	8aa/L	.	.
.	8gg#/	.	]
.	8aa/	.	.
.	8ff#/J	.	.
!!LO:LB:g=original
=474	=474	=474	=474
2E\ 2A\ 2c#X\	4ee^>/	4a\	.
.	4ee^>/	4a\	.
4E\ 4G\ 4A\ 4c#\	4ee^>/	4a\	.
=475	=475	=475	=475
2F#\ 2A\ 2d\	(>8dd/L	2.a\	.
.	8ff#/J	.	.
.	8qbb/	.	.
.	8aa/L	.	.
.	8gg#X/	.	.
4D\ 4F#\ 4A\ 4d\	8aa/	.	.
.	8ff#/J)	.	.
=476	=476	=476	=476
2D\ 2G\ 2A\ 2c#\	4ee/	4a^^<\	pp
.	4ee/	4a^^<\	.
4D\ 4G\ 4A\ 4c#\	4ee/	4a^^<\	.
=477	=477	=477	=477
2D\ 2G\ 2A\ 2c#\	4ee/	4a\^^<	.
.	4ee/	4a\^^<	.
4D\ 4G\ 4A\ 4c#\	4ee/	4a\^^<	.
=478	=478	=478	=478
2D\ 2G\ 2A\ 2c#\	4ee/	4a\^^<	.
.	4ee/	4a\^^<	.
4D\ 4G\ 4A\ 4c#\	4ee/	4a\^^<	.
*	*v	*v	*
=479	=479	=479
2D\ 2G\ 2A\ 2c#\	4a^>\ 4ee\	.
.	4a^>\ 4ee\	.
4D^>\ 4G\ 4A\ 4c#\	4a^>\ 4ee\	.
=480	=480	=480
.	8qgg#X/	.
2D\ 2F#\ 2A\ 2d\	2.a^>\ 2.aa\	sf
4D^>\ 4F#\ 4A\ 4d\	.	.
=481	=481	=481
!	!LO:TX:b:B:i:t=sempre più	!
2D\ 2G\ 2A\ 2c#\	4a^>\ 4ee\	.
.	4a^>\ 4ee\	.
4D\ 4G\ 4A\ 4c#\	4a^>\ 4ee\	sf
!!LO:LB:g=original
=482	=482	=482
2D\ 2G\ 2A\ 2c#\	4a^>\ 4ee\	.
.	4a^>\ 4ee\	.
4D\ 4G\ 4A\ 4c#\	4a^>\ 4ee\	sf
=483	=483	=483
!	!	!LO:DY:t=piano
2D\ 2G\ 2A\ 2c#\	4a^>\ 4ee\	p
.	4a^>\ 4ee\	.
4D^>\ 4G\ 4A\ 4c#\	4a^>\ 4ee\	sf
=484	=484	=484
.	8qgg#X/	sf
!	!LO:TX:b:i:t=e-ral-len-tan-do:dur=12q:ext=ud:problem=text with extention lines	!
2D\ 2F#\ 2A\ 2d\	2.a\ 2.aa\	.
4D^>\ 4A\	.	.
=485	=485	=485
2D\ 2G\ 2A\	4a^>\ 4ee\	.
.	4a^>\ 4ee\	.
4D^>\ 4A\	4a^>\ 4ee\	.
=486	=486	=486
.	8qgg#X/	.
*ped	*	*
2DD/ 2AA/ 2F#/	2.an^>\ 2.aa\	.
4D^>\ 4A\	.	.
=487	=487	=487
2D\ 2G\ 2A\	4a^>\ 4ee\	.
.	4a^>\ 4ee\	.
4D\ 4G\ 4A\	4a^>\ 4ee\	.
=488	=488	=488
.	8qgg#X/	.
(<2DD/ (<2AA/ (>2F#/	2.a^>\ 2.aa\	.
4D^>\)) 4A\)	.	.
=489	=489	=489
!	!LO:TX:b:i:t=morendo	!
.	8qgg#X/	.
(<2DD/ (>2AA/ (>2F#/	2.a^>\ 2.aa\	.
4D^>\)) 4A\)	.	.
=490	=490	=490
.	8qgg#X/	.
(<2DD/ (<2AA/ (>2F#/	2.a^>\ 2.aa\	.
4D^>\)) 4A\)	.	.
!!LO:LB:g=original
=491	=491	=491
.	8qgg#X/	.
(<2DD/ (<2AA/ (>2F#/	2.a^>\ 2.aa\	.
4D^>\)) 4A)\	.	.
=492	=492	=492
.	8qgg#X/	.
(<2DD/ (<2AA/ (>2F#/	2.a^>\ 2.aa\	.
4D^>\)) 4A\)	.	.
=493	=493	=493
.	8qgg#X/	.
(<2DD/ (<2AA/ (>2F#/	2.a\ 2.aa\	.
4D^>\)) 4A\)	.	.
=494	=494	=494
.	8qgg#X/	.
(<2DD/ (<2AA/ (>2F#/	2.a\ 2.aa\	.
4D^>\)) 4A)	.	.
=495	=495	=495
.	8qgg#X/	.
(<2DD/ (<2AA (>2F#	2.a\ 2.aa\	.
4D^>\)) 4A\)	.	.
=496	=496	=496
.	8qgg#X/	.
2DD/ 2AA/	2.a\ 2.aa\	.
4D^>\ 4A\	.	.
=497	=497	=497
.	8qgg#X/	.
2.rF	2.a\ 2.aa\	.
=498	=498	=498
.	8qgg#X/	.
2DD/ 2AA/	[<2.a\ [>2.aa\	.
4D^>\ 4A\	.	.
=499	=499	=499
2.rF;>	2.a;>\] 2.aa\]	.
=500	=500	=500
!	!LO:TX:a:B:t=Presto.	!
4DD/ 4D/	4dd^^>\ 4ff#\ 4aa\ 4ddd\	ff
!LO:TX:b:i:t=Fine.	!	!
4DDD/ 4DD/	4dd^^>\ 4ff#\ 4aa\ 4ddd\	.
4r	4rb	.
==	==	==
*-	*-	*-
!!!system-decoration: [{g1}]
!!!RDF**kern: > = above
!!!RDF**kern: < = below
!!!ENC: Filip Voros
!!!END: 2022-02-28
!!!EED: Jędrzej Mróz
!!!EEV: 2022-03-14
